(.../EAGLE-7.6.0/ulp/pcb-gcode.ulp)
(Copyright 2005 - 2012 by John Johnson)
(See readme.txt for licensing terms.)
(This file generated from the board:)
(.../Documents/eagle/MADLAB/MADLABar.brd)
(Current profile is .../pcb-gcode-3.6.0.4/profiles/mach.pp  )
(This file generated 16-03-2017 19:09)
(Settings from pcb-machine.h)
(  Tool Size)
(0.1778  )
(Z Axis Settings)
(  High     Up        Down     Drill)
(12.7000 	2.5400  	-0.0500 	-0.0500 )
(spindle on time = 3.0000)
(milling depth = -0.2540)
(text depth = -0.1270)
(tool change at 12.7000 15.2400 25.4000 )
(feed rate xy = F508   )
(feed rate z  = F254   )
(Settings from pcb-defaults.h)
(isolate min = 0.0254)
(isolate max = 0.5080)
(isolate step = 0.1270)
(Generated bottom outlines, bottom drill, )
(Unit of measure: mm)
( Tool|       Size       |  Min Sub |  Max Sub |   Count )
( T01 | 0.600mm 0.0236in | 0.0000in | 0.0000in |       0 )
( T02 | 0.700mm 0.0276in | 0.0000in | 0.0000in |       0 )
( T03 | 0.800mm 0.0315in | 0.0000in | 0.0000in |       0 )
( T04 | 1.000mm 0.0394in | 0.0000in | 0.0000in |       0 )
( T05 | 3.000mm 0.1181in | 0.0000in | 0.0000in |       0 )
(Metric Mode)
G21
(Absolute Coordinates)
G90
M05
G00 Z25.4000 
G00 X12.7000 Y15.2400 
M06 T01  ; 0.6000  
G01 Z0.0000  F254   
M06 T01  ; 0.6000  
G00 Z2.5400  
M03
G04 P3.000000
G82 X-33.0200 Y21.5900 Z-0.0500 F254   R2.5400  P1.000000
G82 X-33.0200 Y29.2100 
G82 X-34.2900 Y6.3500  
G82 X-35.5600 Y29.2100 
G82 X-43.1800 Y39.3700 
G82 X-43.1800 Y50.8000 
G82 X-43.1800 Y29.2100 
G82 X-57.1500 Y44.4500 
G82 X-19.0500 Y10.1600 
G82 X-19.0500 Y17.7800 
G82 X-22.8600 Y11.4300 
G82 X-26.6700 Y6.3500  
G82 X-30.4800 Y11.4300 
M05
G00 Z25.4000 
M06 T02  ; 0.7000  
G01 Z0.0000  F254   
M06 T02  ; 0.7000  
G00 Z2.5400  
M03
G04 P3.000000
G82 X-39.3700 Y33.0200 Z-0.0500 F254   R2.5400  P1.000000
G82 X-39.3700 Y35.5600 
G82 X-39.3700 Y38.1000 
G82 X-39.3700 Y40.6400 
G82 X-39.3700 Y43.1800 
G82 X-39.3700 Y45.7200 
G82 X-39.3700 Y48.2600 
G82 X-39.3700 Y50.8000 
G82 X-39.3700 Y15.2400 
G82 X-39.3700 Y17.7800 
G82 X-39.3700 Y20.3200 
G82 X-39.3700 Y22.8600 
G82 X-39.3700 Y25.4000 
G82 X-39.3700 Y27.9400 
G82 X-39.3700 Y30.4800 
G82 X-24.1300 Y33.0200 
G82 X-24.1300 Y35.5600 
G82 X-24.1300 Y38.1000 
G82 X-24.1300 Y40.6400 
G82 X-24.1300 Y43.1800 
G82 X-24.1300 Y45.7200 
G82 X-24.1300 Y48.2600 
G82 X-24.1300 Y50.8000 
G82 X-24.1300 Y15.2400 
G82 X-24.1300 Y17.7800 
G82 X-24.1300 Y20.3200 
G82 X-24.1300 Y22.8600 
G82 X-24.1300 Y25.4000 
G82 X-24.1300 Y27.9400 
G82 X-24.1300 Y30.4800 
M05
G00 Z25.4000 
M06 T03  ; 0.8000  
G01 Z0.0000  F254   
M06 T03  ; 0.8000  
G00 Z2.5400  
M03
G04 P3.000000
G82 X-35.5854 Y58.4200 Z-0.0500 F254   R2.5400  P1.000000
G82 X-40.6146 Y58.4200 
G82 X-41.9354 Y6.3500  
G82 X-46.9646 Y6.3500  
G82 X-50.8000 Y34.3154 
G82 X-50.8000 Y39.3446 
G82 X-50.8000 Y44.4754 
G82 X-50.8000 Y49.5046 
G82 X-50.8000 Y54.6354 
G82 X-50.8000 Y59.6646 
G82 X-50.8000 Y13.9954 
G82 X-50.8000 Y19.0246 
G82 X-50.8000 Y24.1554 
G82 X-50.8000 Y29.1846 
G82 X-13.9700 Y34.3154 
G82 X-13.9700 Y39.3446 
G82 X-13.9700 Y44.4754 
G82 X-13.9700 Y49.5046 
G82 X-13.9700 Y54.6354 
G82 X-13.9700 Y59.6646 
G82 X-13.9700 Y13.9954 
G82 X-13.9700 Y19.0246 
G82 X-13.9700 Y24.1554 
G82 X-13.9700 Y29.1846 
G82 X-25.4254 Y58.4200 
G82 X-30.4546 Y58.4200 
M05
G00 Z25.4000 
M06 T04  ; 1.0000  
G01 Z0.0000  F254   
M06 T04  ; 1.0000  
G00 Z2.5400  
M03
G04 P3.000000
G82 X-35.5600 Y29.2100 Z-0.0500 F254   R2.5400  P1.000000
G82 X-43.1800 Y29.2100 
G82 X-30.4800 Y33.0200 
G82 X-30.4800 Y40.6400 
M05
G00 Z25.4000 
M06 T05  ; 3.0000  
G01 Z0.0000  F254   
M06 T05  ; 3.0000  
G00 Z2.5400  
M03
G04 P3.000000
G82 X-5.0800 Y66.0400 Z-0.0500 F254   R2.5400  P1.000000
G82 X-58.4200 Y66.0400 
G82 X-6.3500 Y7.6200  
T01 
G00 Z12.7000 
M05
M02
