(.../EAGLE-7.6.0/ulp/pcb-gcode.ulp)
(Copyright 2005 - 2012 by John Johnson)
(See readme.txt for licensing terms.)
(This file generated from the board:)
(.../Documents/eagle/MADLAB/MADLABar.brd)
(Current profile is .../pcb-gcode-3.6.0.4/profiles/mach.pp  )
(This file generated 16-03-2017 19:08)
(Settings from pcb-machine.h)
(  Tool Size)
(0.1778  )
(Z Axis Settings)
(  High     Up        Down     Drill)
(12.7000 	2.5400  	-0.0500 	-0.0500 )
(spindle on time = 3.0000)
(milling depth = -0.2540)
(text depth = -0.1270)
(tool change at 12.7000 15.2400 25.4000 )
(feed rate xy = F508   )
(feed rate z  = F254   )
(Settings from pcb-defaults.h)
(isolate min = 0.0254)
(isolate max = 0.5080)
(isolate step = 0.1270)
(Generated bottom outlines, bottom drill, )
(Unit of measure: mm)
(Metric Mode)
G21
(Absolute Coordinates)
G90
G00 X0.0000  Y0.0000  
M03
G04 P3.000000
G00 Z2.5400  
G00 X-49.1047 Y45.3079 
G01 Z-0.0500 F254   
G01 X-49.2196 Y45.3961 F508   
G01 X-49.3451 Y45.4685 
G01 X-49.4789 Y45.5239 
G01 X-49.6188 Y45.5614 
G01 X-49.7624 Y45.5803 
G01 X-50.0507 Y45.5803 
G01 X-50.0507 Y45.5549 
G01 X-49.7498 Y45.5549 
G01 X-49.5820 Y45.5283 
G01 X-49.4204 Y45.4758 
G01 X-49.2690 Y45.3987 
G01 X-49.1316 Y45.2988 
G01 X-49.0575 Y45.2247 
G01 X-49.0215 Y45.2247 
G01 X-49.1047 Y45.3079 
G00 Z2.5400  
G00 X-6.8539 Y0.6223  
G01 Z-0.0500 F254   
G01 X-6.7307 Y0.7455  F508   
G01 X-6.7307 Y1.1183  
G01 X-6.8539 Y1.2415  
G01 X-7.2267 Y1.2415  
G01 X-7.3499 Y1.1183  
G01 X-7.3499 Y0.7455  
G01 X-7.2267 Y0.6223  
G01 X-6.8539 Y0.6223  
G00 Z2.5400  
G00 X-24.3949 Y0.6223  
G01 Z-0.0500 F254   
G01 X-24.2717 Y0.7455  F508   
G01 X-24.2717 Y1.1183  
G01 X-24.3949 Y1.2415  
G01 X-24.7677 Y1.2415  
G01 X-24.8909 Y1.1183  
G01 X-24.8909 Y0.7455  
G01 X-24.7677 Y0.6223  
G01 X-24.3949 Y0.6223  
G00 Z2.5400  
G00 X-30.8181 Y1.7669  
G01 Z-0.0500 F254   
G01 X-30.9458 Y1.6392  F508   
G01 X-30.6904 Y1.6392  
G01 X-30.8181 Y1.7669  
G00 Z2.5400  
G00 X-17.6451 Y1.4234  
G01 Z-0.0500 F254   
G01 X-17.6451 Y1.7962  F508   
G01 X-17.7683 Y1.9194  
G01 X-18.2643 Y1.9194  
G01 X-18.2643 Y1.3002  
G01 X-17.7683 Y1.3002  
G01 X-17.6451 Y1.4234  
G00 Z2.5400  
G00 X-15.0202 Y58.5851 
G01 Z-0.0500 F254   
G01 X-15.1880 Y58.6117 F508   
G01 X-15.3496 Y58.6642 
G01 X-15.5010 Y58.7413 
G01 X-15.6384 Y58.8412 
G01 X-15.7125 Y58.9153 
G01 X-15.7485 Y58.9153 
G01 X-15.6653 Y58.8321 
G01 X-15.5504 Y58.7439 
G01 X-15.4249 Y58.6715 
G01 X-15.2911 Y58.6161 
G01 X-15.1512 Y58.5786 
G01 X-15.0076 Y58.5597 
G01 X-14.7193 Y58.5597 
G01 X-14.7193 Y58.5851 
G01 X-15.0202 Y58.5851 
G00 Z2.5400  
G00 X-12.9198 Y58.5851 
G01 Z-0.0500 F254   
G01 X-13.2207 Y58.5851 F508   
G01 X-13.2207 Y58.5597 
G01 X-12.9324 Y58.5597 
G01 X-12.7888 Y58.5786 
G01 X-12.6489 Y58.6161 
G01 X-12.5151 Y58.6715 
G01 X-12.3896 Y58.7439 
G01 X-12.2747 Y58.8321 
G01 X-12.1915 Y58.9153 
G01 X-12.2275 Y58.9153 
G01 X-12.3016 Y58.8412 
G01 X-12.4390 Y58.7413 
G01 X-12.5904 Y58.6642 
G01 X-12.7520 Y58.6117 
G01 X-12.9198 Y58.5851 
G00 Z2.5400  
G00 X-45.8597 Y7.3876  
G01 Z-0.0500 F254   
G01 X-45.8786 Y7.5312  F508   
G01 X-45.9161 Y7.6711  
G01 X-45.9715 Y7.8049  
G01 X-46.0439 Y7.9304  
G01 X-46.1321 Y8.0453  
G01 X-46.2153 Y8.1285  
G01 X-46.2153 Y8.0925  
G01 X-46.1412 Y8.0184  
G01 X-46.0413 Y7.8810  
G01 X-45.9642 Y7.7296  
G01 X-45.9117 Y7.5680  
G01 X-45.8851 Y7.4002  
G01 X-45.8851 Y7.0993  
G01 X-45.8597 Y7.0993  
G01 X-45.8597 Y7.3876  
G00 Z2.5400  
G00 X-43.0149 Y5.2998  
G01 Z-0.0500 F254   
G01 X-43.0149 Y7.4002  F508   
G01 X-42.9883 Y7.5680  
G01 X-42.9358 Y7.7296  
G01 X-42.8587 Y7.8810  
G01 X-42.7588 Y8.0184  
G01 X-42.6386 Y8.1386  
G01 X-42.5012 Y8.2385  
G01 X-42.3498 Y8.3156  
G01 X-42.1882 Y8.3681  
G01 X-42.0204 Y8.3947  
G01 X-41.8504 Y8.3947  
G01 X-41.6826 Y8.3681  
G01 X-41.5210 Y8.3156  
G01 X-41.3696 Y8.2385  
G01 X-41.2322 Y8.1386  
G01 X-41.1120 Y8.0184  
G01 X-41.0121 Y7.8810  
G01 X-40.9350 Y7.7296  
G01 X-40.8825 Y7.5680  
G01 X-40.8559 Y7.4002  
G01 X-40.8559 Y5.2998  
G01 X-40.8825 Y5.1320  
G01 X-40.9350 Y4.9704  
G01 X-41.0121 Y4.8190  
G01 X-41.1120 Y4.6816  
G01 X-41.1861 Y4.6075  
G01 X-41.1861 Y2.5728  
G01 X-41.1621 Y1.3511  
G01 X-41.1607 Y1.3438  
G01 X-41.1607 Y1.2774  
G01 X-41.1594 Y1.2109  
G01 X-41.1607 Y1.2036  
G01 X-41.1607 Y1.1962  
G01 X-41.1737 Y1.1310  
G01 X-41.1853 Y1.0656  
G01 X-41.1880 Y1.0587  
G01 X-41.1895 Y1.0514  
G01 X-41.2149 Y0.9900  
G01 X-41.2391 Y0.9282  
G01 X-41.2431 Y0.9219  
G01 X-41.2460 Y0.9151  
G01 X-41.2829 Y0.8598  
G01 X-41.3187 Y0.8039  
G01 X-41.3239 Y0.7985  
G01 X-41.3280 Y0.7923  
G01 X-41.3750 Y0.7453  
G01 X-41.4210 Y0.6975  
G01 X-41.4271 Y0.6932  
G01 X-41.4323 Y0.6880  
G01 X-41.4876 Y0.6510  
G01 X-41.5421 Y0.6131  
G01 X-41.5489 Y0.6101  
G01 X-41.5551 Y0.6060  
G01 X-41.6166 Y0.5805  
G01 X-41.6774 Y0.5539  
G01 X-41.6846 Y0.5523  
G01 X-41.6914 Y0.5495  
G01 X-41.7567 Y0.5365  
G01 X-41.8215 Y0.5223  
G01 X-41.8289 Y0.5221  
G01 X-41.8362 Y0.5207  
G01 X-41.9026 Y0.5207  
G01 X-41.9691 Y0.5194  
G01 X-41.9764 Y0.5207  
G01 X-50.8738 Y0.5207  
G01 X-51.0186 Y0.5495  
G01 X-51.1549 Y0.6060  
G01 X-51.2777 Y0.6880  
G01 X-51.3820 Y0.7923  
G01 X-51.4640 Y0.9151  
G01 X-51.5205 Y1.0514  
G01 X-51.5493 Y1.1962  
G01 X-51.5493 Y9.4107  
G01 X-57.2238 Y9.4107  
G01 X-57.3686 Y9.4395  
G01 X-57.5049 Y9.4960  
G01 X-57.6277 Y9.5780  
G01 X-57.7320 Y9.6823  
G01 X-57.8140 Y9.8051  
G01 X-57.8705 Y9.9414  
G01 X-57.8993 Y10.0862 
G01 X-57.8993 Y22.9338 
G01 X-57.8705 Y23.0786 
G01 X-57.8140 Y23.2149 
G01 X-57.7320 Y23.3377 
G01 X-56.4620 Y24.6076 
G01 X-56.3576 Y24.7120 
G01 X-56.2349 Y24.7940 
G01 X-56.0986 Y24.8505 
G01 X-55.9538 Y24.8793 
G01 X-52.5679 Y24.8793 
G01 X-52.4684 Y24.9788 
G01 X-52.3310 Y25.0787 
G01 X-52.1796 Y25.1558 
G01 X-52.0180 Y25.2083 
G01 X-51.8502 Y25.2349 
G01 X-49.7498 Y25.2349 
G01 X-49.5820 Y25.2083 
G01 X-49.4204 Y25.1558 
G01 X-49.2690 Y25.0787 
G01 X-49.1316 Y24.9788 
G01 X-49.0114 Y24.8586 
G01 X-48.9115 Y24.7212 
G01 X-48.8344 Y24.5698 
G01 X-48.7819 Y24.4082 
G01 X-48.7553 Y24.2404 
G01 X-48.7553 Y24.0704 
G01 X-48.7819 Y23.9026 
G01 X-48.8344 Y23.7410 
G01 X-48.9115 Y23.5896 
G01 X-49.0114 Y23.4522 
G01 X-49.1316 Y23.3320 
G01 X-49.2690 Y23.2321 
G01 X-49.4204 Y23.1550 
G01 X-49.5820 Y23.1025 
G01 X-49.7498 Y23.0759 
G01 X-51.8502 Y23.0759 
G01 X-52.0180 Y23.1025 
G01 X-52.1796 Y23.1550 
G01 X-52.3310 Y23.2321 
G01 X-52.4684 Y23.3320 
G01 X-52.5171 Y23.3807 
G01 X-55.5696 Y23.3807 
G01 X-56.4007 Y22.5496 
G01 X-56.4007 Y10.9093 
G01 X-50.7262 Y10.9093 
G01 X-50.5814 Y10.8805 
G01 X-50.4451 Y10.8240 
G01 X-50.3223 Y10.7420 
G01 X-50.2180 Y10.6377 
G01 X-50.1360 Y10.5149 
G01 X-50.0795 Y10.3786 
G01 X-50.0507 Y10.2338 
G01 X-50.0507 Y2.0193  
G01 X-42.6741 Y2.0193  
G01 X-42.6833 Y2.4843  
G01 X-42.6847 Y2.4916  
G01 X-42.6847 Y2.5580  
G01 X-42.6860 Y2.6245  
G01 X-42.6847 Y2.6318  
G01 X-42.6847 Y4.6075  
G01 X-42.7588 Y4.6816  
G01 X-42.8587 Y4.8190  
G01 X-42.9358 Y4.9704  
G01 X-42.9883 Y5.1320  
G01 X-43.0149 Y5.2998  
G00 Z2.5400  
G00 X-48.0441 Y5.2998  
G01 Z-0.0500 F254   
G01 X-48.0441 Y7.4002  F508   
G01 X-48.0175 Y7.5680  
G01 X-47.9650 Y7.7296  
G01 X-47.8879 Y7.8810  
G01 X-47.7880 Y8.0184  
G01 X-47.7139 Y8.0925  
G01 X-47.7139 Y8.1285  
G01 X-47.7971 Y8.0453  
G01 X-47.8852 Y7.9304  
G01 X-47.9019 Y7.9015  
G01 X-47.9182 Y7.8829  
G01 X-47.9320 Y7.8623  
G01 X-47.9556 Y7.8386  
G01 X-47.9601 Y7.8329  
G01 X-47.9688 Y7.8253  
G01 X-47.9992 Y7.7905  
G01 X-48.0189 Y7.7754  
G01 X-48.0363 Y7.7579  
G01 X-48.0772 Y7.7306  
G01 X-48.1163 Y7.7006  
G01 X-48.1385 Y7.6897  
G01 X-48.1591 Y7.6759  
G01 X-48.2045 Y7.6571  
G01 X-48.2487 Y7.6353  
G01 X-48.2726 Y7.6289  
G01 X-48.2954 Y7.6194  
G01 X-48.3437 Y7.6098  
G01 X-48.3912 Y7.5971  
G01 X-48.4159 Y7.5955  
G01 X-48.4402 Y7.5907  
G01 X-48.4894 Y7.5907  
G01 X-48.5385 Y7.5874  
G01 X-48.5630 Y7.5907  
G01 X-48.5878 Y7.5907  
G01 X-48.6361 Y7.6003  
G01 X-48.6849 Y7.6067  
G01 X-48.7083 Y7.6146  
G01 X-48.7326 Y7.6194  
G01 X-48.7780 Y7.6383  
G01 X-48.8246 Y7.6541  
G01 X-48.8461 Y7.6665  
G01 X-48.8689 Y7.6759  
G01 X-48.9098 Y7.7033  
G01 X-48.9525 Y7.7279  
G01 X-48.9711 Y7.7442  
G01 X-48.9916 Y7.7579  
G01 X-49.0264 Y7.7927  
G01 X-49.0634 Y7.8252  
G01 X-49.0785 Y7.8448  
G01 X-49.0960 Y7.8623  
G01 X-49.1233 Y7.9032  
G01 X-49.1533 Y7.9422  
G01 X-49.1643 Y7.9645  
G01 X-49.1780 Y7.9850  
G01 X-49.1968 Y8.0305  
G01 X-49.2186 Y8.0746  
G01 X-49.2250 Y8.0985  
G01 X-49.2345 Y8.1214  
G01 X-49.2441 Y8.1696  
G01 X-49.2568 Y8.2172  
G01 X-49.2585 Y8.2419  
G01 X-49.2633 Y8.2661  
G01 X-49.2633 Y8.3154  
G01 X-49.2665 Y8.3645  
G01 X-49.2633 Y8.3890  
G01 X-49.2633 Y10.4657 
G01 X-49.4966 Y11.0289 
G01 X-49.4997 Y11.0329 
G01 X-49.5171 Y11.0503 
G01 X-49.5445 Y11.0913 
G01 X-49.5745 Y11.1304 
G01 X-49.5854 Y11.1525 
G01 X-49.5991 Y11.1731 
G01 X-49.6180 Y11.2186 
G01 X-49.6398 Y11.2628 
G01 X-49.6462 Y11.2866 
G01 X-49.6556 Y11.3094 
G01 X-49.6652 Y11.3578 
G01 X-49.6780 Y11.4054 
G01 X-49.6796 Y11.4300 
G01 X-49.6844 Y11.4542 
G01 X-49.6844 Y11.5035 
G01 X-49.6876 Y11.5526 
G01 X-49.6844 Y11.5771 
G01 X-49.6844 Y11.6018 
G01 X-49.6748 Y11.6501 
G01 X-49.6683 Y11.6990 
G01 X-49.6604 Y11.7223 
G01 X-49.6556 Y11.7466 
G01 X-49.6367 Y11.7921 
G01 X-49.6209 Y11.8387 
G01 X-49.6086 Y11.8601 
G01 X-49.5991 Y11.8829 
G01 X-49.5717 Y11.9239 
G01 X-49.5471 Y11.9666 
G01 X-49.5308 Y11.9851 
G01 X-49.5171 Y12.0056 
G01 X-49.4823 Y12.0405 
G01 X-49.4498 Y12.0775 
G01 X-49.4302 Y12.0926 
G01 X-49.4127 Y12.1100 
G01 X-49.3718 Y12.1374 
G01 X-49.3327 Y12.1674 
G01 X-49.3105 Y12.1783 
G01 X-49.2900 Y12.1920 
G01 X-49.2445 Y12.2109 
G01 X-49.2003 Y12.2327 
G01 X-49.1765 Y12.2390 
G01 X-49.1537 Y12.2485 
G01 X-49.1126 Y12.2567 
G01 X-48.6885 Y12.5015 
G01 X-48.3409 Y12.8491 
G01 X-48.0951 Y13.2748 
G01 X-47.9679 Y13.7496 
G01 X-47.9679 Y14.2412 
G01 X-48.0951 Y14.7160 
G01 X-48.3409 Y15.1417 
G01 X-48.6885 Y15.4893 
G01 X-49.1142 Y15.7351 
G01 X-49.2577 Y15.7735 
G01 X-49.2822 Y15.7767 
G01 X-49.3288 Y15.7926 
G01 X-49.3764 Y15.8053 
G01 X-49.3986 Y15.8163 
G01 X-49.4219 Y15.8242 
G01 X-49.4646 Y15.8488 
G01 X-49.5088 Y15.8706 
G01 X-49.5284 Y15.8856 
G01 X-49.5498 Y15.8980 
G01 X-49.5868 Y15.9305 
G01 X-49.6259 Y15.9605 
G01 X-49.6422 Y15.9790 
G01 X-49.6607 Y15.9953 
G01 X-49.6907 Y16.0344 
G01 X-49.7232 Y16.0714 
G01 X-49.7356 Y16.0928 
G01 X-49.7506 Y16.1124 
G01 X-49.7724 Y16.1566 
G01 X-49.7970 Y16.1993 
G01 X-49.8049 Y16.2226 
G01 X-49.8159 Y16.2448 
G01 X-49.8286 Y16.2924 
G01 X-49.8445 Y16.3390 
G01 X-49.8477 Y16.3635 
G01 X-49.8541 Y16.3874 
G01 X-49.8573 Y16.4365 
G01 X-49.8637 Y16.4854 
G01 X-49.8621 Y16.5100 
G01 X-49.8637 Y16.5346 
G01 X-49.8573 Y16.5835 
G01 X-49.8541 Y16.6327 
G01 X-49.8477 Y16.6565 
G01 X-49.8445 Y16.6810 
G01 X-49.8286 Y16.7276 
G01 X-49.8159 Y16.7752 
G01 X-49.8049 Y16.7974 
G01 X-49.7970 Y16.8207 
G01 X-49.7724 Y16.8634 
G01 X-49.7506 Y16.9076 
G01 X-49.7356 Y16.9272 
G01 X-49.7232 Y16.9486 
G01 X-49.6907 Y16.9856 
G01 X-49.6607 Y17.0247 
G01 X-49.6422 Y17.0410 
G01 X-49.6259 Y17.0595 
G01 X-49.5868 Y17.0895 
G01 X-49.5498 Y17.1220 
G01 X-49.5284 Y17.1344 
G01 X-49.5088 Y17.1494 
G01 X-49.4646 Y17.1712 
G01 X-49.4219 Y17.1958 
G01 X-49.3986 Y17.2037 
G01 X-49.3764 Y17.2147 
G01 X-49.3288 Y17.2274 
G01 X-49.2822 Y17.2433 
G01 X-49.2577 Y17.2465 
G01 X-49.1142 Y17.2849 
G01 X-48.9578 Y17.3752 
G01 X-48.9168 Y17.4026 
G01 X-48.8940 Y17.4121 
G01 X-48.8726 Y17.4244 
G01 X-48.8260 Y17.4402 
G01 X-48.7804 Y17.4591 
G01 X-48.7562 Y17.4639 
G01 X-48.7328 Y17.4719 
G01 X-48.6840 Y17.4783 
G01 X-48.6357 Y17.4879 
G01 X-48.6110 Y17.4879 
G01 X-48.5865 Y17.4911 
G01 X-48.5373 Y17.4879 
G01 X-47.1976 Y17.4879 
G01 X-47.1446 Y17.4908 
G01 X-47.1240 Y17.4879 
G01 X-47.1031 Y17.4879 
G01 X-47.0511 Y17.4775 
G01 X-46.9350 Y17.4611 
G01 X-46.8928 Y17.4695 
G01 X-46.8414 Y17.4827 
G01 X-46.8206 Y17.4838 
G01 X-46.8001 Y17.4879 
G01 X-46.7470 Y17.4879 
G01 X-46.7040 Y17.4903 
G01 X-46.5957 Y17.5351 
G01 X-46.5478 Y17.5581 
G01 X-46.5277 Y17.5633 
G01 X-46.5084 Y17.5713 
G01 X-46.4563 Y17.5817 
G01 X-46.3428 Y17.6108 
G01 X-46.3070 Y17.6348 
G01 X-46.2645 Y17.6666 
G01 X-46.2457 Y17.6757 
G01 X-46.2284 Y17.6873 
G01 X-46.1794 Y17.7076 
G01 X-46.1405 Y17.7262 
G01 X-46.0577 Y17.8091 
G01 X-46.0222 Y17.8487 
G01 X-46.0056 Y17.8612 
G01 X-45.9908 Y17.8759 
G01 X-45.9467 Y17.9054 
G01 X-42.8568 Y20.2267 
G01 X-42.8421 Y20.2414 
G01 X-42.7979 Y20.2709 
G01 X-42.7555 Y20.3028 
G01 X-42.7367 Y20.3119 
G01 X-42.7193 Y20.3234 
G01 X-42.6703 Y20.3438 
G01 X-42.6224 Y20.3668 
G01 X-42.6022 Y20.3720 
G01 X-42.5830 Y20.3799 
G01 X-42.5309 Y20.3903 
G01 X-42.4795 Y20.4035 
G01 X-42.4586 Y20.4047 
G01 X-42.4382 Y20.4087 
G01 X-42.3851 Y20.4087 
G01 X-42.3321 Y20.4117 
G01 X-42.3115 Y20.4087 
G01 X-42.2906 Y20.4087 
G01 X-42.2385 Y20.3984 
G01 X-42.1860 Y20.3909 
G01 X-42.1663 Y20.3840 
G01 X-42.1458 Y20.3799 
G01 X-42.0968 Y20.3596 
G01 X-42.0467 Y20.3420 
G01 X-42.0288 Y20.3314 
G01 X-42.0095 Y20.3234 
G01 X-41.9653 Y20.2939 
G01 X-41.9196 Y20.2669 
G01 X-41.9041 Y20.2530 
G01 X-41.8867 Y20.2414 
G01 X-41.8492 Y20.2039 
G01 X-41.8096 Y20.1685 
G01 X-41.7971 Y20.1518 
G01 X-41.7824 Y20.1371 
G01 X-41.7529 Y20.0929 
G01 X-41.7210 Y20.0505 
G01 X-41.7120 Y20.0317 
G01 X-41.7004 Y20.0143 
G01 X-41.6801 Y19.9653 
G01 X-41.6571 Y19.9174 
G01 X-41.6519 Y19.8972 
G01 X-41.4439 Y19.3951 
G01 X-41.3915 Y19.2686 
G01 X-41.3627 Y19.1238 
G01 X-41.3627 Y18.9762 
G01 X-41.3915 Y18.8314 
G01 X-41.4403 Y18.7135 
G01 X-41.4479 Y18.6951 
G01 X-41.6941 Y18.1008 
G01 X-41.6941 Y17.4592 
G01 X-41.3915 Y16.7286 
G01 X-41.3627 Y16.5838 
G01 X-41.3627 Y16.4362 
G01 X-41.3915 Y16.2914 
G01 X-41.3940 Y16.2854 
G01 X-41.6941 Y15.5608 
G01 X-41.6941 Y14.9192 
G01 X-41.4485 Y14.3264 
G01 X-41.0740 Y13.9518 
G01 X-40.9920 Y13.8291 
G01 X-40.9355 Y13.6927 
G01 X-40.9067 Y13.5479 
G01 X-40.9067 Y12.3943 
G01 X-40.6727 Y11.8295 
G01 X-40.2405 Y11.3972 
G01 X-39.6757 Y11.1633 
G01 X-37.7722 Y11.1633 
G01 X-37.6274 Y11.1345 
G01 X-37.4911 Y11.0780 
G01 X-37.3683 Y10.9960 
G01 X-37.2640 Y10.8917 
G01 X-37.1820 Y10.7689 
G01 X-37.1255 Y10.6326 
G01 X-37.0967 Y10.4878 
G01 X-37.0967 Y6.0443  
G01 X-36.8627 Y5.4795  
G01 X-36.4305 Y5.0472  
G01 X-35.8657 Y4.8133  
G01 X-35.2709 Y4.8133  
G01 X-35.1261 Y4.7845  
G01 X-35.0116 Y4.7371  
G01 X-33.6219 Y4.7371  
G01 X-33.3480 Y5.0110  
G01 X-33.2538 Y5.1052  
G01 X-33.2436 Y5.1154  
G01 X-33.1209 Y5.1974  
G01 X-33.0798 Y5.2144  
G01 X-32.9846 Y5.2539  
G01 X-32.8414 Y5.2823  
G01 X-32.6922 Y5.2826  
G01 X-32.5474 Y5.2539  
G01 X-32.4111 Y5.1974  
G01 X-32.3307 Y5.1437  
G01 X-32.2883 Y5.1154  
G01 X-32.1840 Y5.0110  
G01 X-32.1020 Y4.8883  
G01 X-32.0850 Y4.8472  
G01 X-32.0455 Y4.7519  
G01 X-32.0170 Y4.6088  
G01 X-32.0167 Y3.5043  
G01 X-31.9514 Y3.3466  
G01 X-31.9226 Y3.2018  
G01 X-31.9226 Y3.0542  
G01 X-31.9514 Y2.9095  
G01 X-32.0078 Y2.7731  
G01 X-32.0898 Y2.6504  
G01 X-32.1942 Y2.5460  
G01 X-32.4758 Y2.2645  
G01 X-32.6517 Y1.8397  
G01 X-32.6517 Y0.0241  
G01 X-32.4758 Y-0.4007 
G01 X-32.1507 Y-0.7258 
G01 X-31.7259 Y-0.9017 
G01 X-31.2661 Y-0.9017 
G01 X-31.1730 Y-0.8631 
G01 X-31.0367 Y-0.8066 
G01 X-30.9223 Y-0.7839 
G01 X-30.8919 Y-0.7779 
G01 X-30.7443 Y-0.7779 
G01 X-30.5995 Y-0.8066 
G01 X-30.3701 Y-0.9017 
G01 X-29.9103 Y-0.9017 
G01 X-29.8341 Y-0.8702 
G01 X-29.7880 Y-0.8511 
G01 X-29.6978 Y-0.8137 
G01 X-29.6698 Y-0.8081 
G01 X-29.5530 Y-0.7849 
G01 X-29.4054 Y-0.7849 
G01 X-29.2919 Y-0.8075 
G01 X-29.2607 Y-0.8137 
G01 X-29.1736 Y-0.8497 
G01 X-29.1243 Y-0.8701 
G01 X-29.0481 Y-0.9017 
G01 X-27.5715 Y-0.9017 
G01 X-27.3259 Y-0.8000 
G01 X-27.1895 Y-0.7435 
G01 X-27.1040 Y-0.7265 
G01 X-27.0447 Y-0.7147 
G01 X-26.8971 Y-0.7147 
G01 X-26.8412 Y-0.7258 
G01 X-26.7524 Y-0.7435 
G01 X-26.6160 Y-0.8000 
G01 X-26.3704 Y-0.9017 
G01 X-25.9106 Y-0.9017 
G01 X-25.7489 Y-0.8347 
G01 X-25.6042 Y-0.8059 
G01 X-25.4566 Y-0.8059 
G01 X-25.3118 Y-0.8347 
G01 X-25.3041 Y-0.8379 
G01 X-25.1501 Y-0.9017 
G01 X-24.0125 Y-0.9017 
G01 X-23.9363 Y-0.8702 
G01 X-23.8902 Y-0.8511 
G01 X-23.7999 Y-0.8137 
G01 X-23.7720 Y-0.8081 
G01 X-23.6552 Y-0.7849 
G01 X-23.5076 Y-0.7849 
G01 X-23.3940 Y-0.8075 
G01 X-23.3628 Y-0.8137 
G01 X-23.2758 Y-0.8497 
G01 X-23.2265 Y-0.8701 
G01 X-23.1503 Y-0.9017 
G01 X-22.6905 Y-0.9017 
G01 X-22.5838 Y-0.8575 
G01 X-22.5365 Y-0.8379 
G01 X-22.4475 Y-0.8010 
G01 X-22.4195 Y-0.7955 
G01 X-22.3027 Y-0.7722 
G01 X-22.1551 Y-0.7722 
G01 X-22.0416 Y-0.7948 
G01 X-22.0104 Y-0.8010 
G01 X-21.9224 Y-0.8374 
G01 X-21.8740 Y-0.8575 
G01 X-21.8255 Y-0.8899 
G01 X-21.7513 Y-0.9395 
G01 X-21.6469 Y-1.0439 
G01 X-21.6261 Y-1.0647 
G01 X-21.2013 Y-1.2407 
G01 X-19.3857 Y-1.2407 
G01 X-18.9553 Y-1.0624 
G01 X-18.8425 Y-0.9870 
G01 X-18.7061 Y-0.9305 
G01 X-18.5614 Y-0.9017 
G01 X-18.4027 Y-0.9017 
G01 X-18.1733 Y-0.8066 
G01 X-18.0285 Y-0.7779 
G01 X-17.8809 Y-0.7779 
G01 X-17.8537 Y-0.7833 
G01 X-17.7361 Y-0.8066 
G01 X-17.5998 Y-0.8631 
G01 X-17.5067 Y-0.9017 
G01 X-17.0469 Y-0.9017 
G01 X-16.9708 Y-0.8702 
G01 X-16.9246 Y-0.8511 
G01 X-16.8344 Y-0.8137 
G01 X-16.8064 Y-0.8081 
G01 X-16.6896 Y-0.7849 
G01 X-16.5420 Y-0.7849 
G01 X-16.4285 Y-0.8075 
G01 X-16.3973 Y-0.8137 
G01 X-16.3102 Y-0.8497 
G01 X-16.2609 Y-0.8701 
G01 X-16.1847 Y-0.9017 
G01 X-15.0471 Y-0.9017 
G01 X-14.8014 Y-0.8000 
G01 X-14.6651 Y-0.7435 
G01 X-14.5795 Y-0.7265 
G01 X-14.5203 Y-0.7147 
G01 X-14.3727 Y-0.7147 
G01 X-14.3168 Y-0.7258 
G01 X-14.2279 Y-0.7435 
G01 X-14.0916 Y-0.8000 
G01 X-13.8460 Y-0.9017 
G01 X-12.3693 Y-0.9017 
G01 X-12.2932 Y-0.8702 
G01 X-12.2471 Y-0.8511 
G01 X-12.1568 Y-0.8137 
G01 X-12.1288 Y-0.8081 
G01 X-12.0120 Y-0.7849 
G01 X-11.8644 Y-0.7849 
G01 X-11.7509 Y-0.8075 
G01 X-11.7197 Y-0.8137 
G01 X-11.6326 Y-0.8497 
G01 X-11.5833 Y-0.8701 
G01 X-11.5072 Y-0.9017 
G01 X-10.0305 Y-0.9017 
G01 X-9.7849 Y-0.8000 
G01 X-9.6485 Y-0.7435 
G01 X-9.5630 Y-0.7265 
G01 X-9.5038 Y-0.7147 
G01 X-9.3562 Y-0.7147 
G01 X-9.3002 Y-0.7258 
G01 X-9.2114 Y-0.7435 
G01 X-9.0750 Y-0.8000 
G01 X-8.8294 Y-0.9017 
G01 X-8.3696 Y-0.9017 
G01 X-8.2080 Y-0.8347 
G01 X-8.0632 Y-0.8059 
G01 X-7.9156 Y-0.8059 
G01 X-7.7708 Y-0.8347 
G01 X-7.7632 Y-0.8379 
G01 X-7.6092 Y-0.9017 
G01 X-6.4715 Y-0.9017 
G01 X-6.3953 Y-0.8702 
G01 X-6.3492 Y-0.8511 
G01 X-6.2590 Y-0.8137 
G01 X-6.2310 Y-0.8081 
G01 X-6.1142 Y-0.7849 
G01 X-5.9666 Y-0.7849 
G01 X-5.8531 Y-0.8075 
G01 X-5.8218 Y-0.8137 
G01 X-5.7348 Y-0.8497 
G01 X-5.6855 Y-0.8701 
G01 X-5.6093 Y-0.9017 
G01 X-5.1496 Y-0.9017 
G01 X-4.7248 Y-0.7258 
G01 X-4.3997 Y-0.4007 
G01 X-4.2105 Y0.0561  
G01 X-4.1949 Y0.1343  
G01 X-4.1545 Y0.2319  
G01 X-4.1385 Y0.2707  
G01 X-4.0581 Y0.3910  
G01 X-3.9521 Y0.4978  
G01 X-3.8343 Y0.5765  
G01 X-3.8294 Y0.5798  
G01 X-3.7079 Y0.6301  
G01 X-3.3986 Y0.9393  
G01 X-3.2759 Y1.0213  
G01 X-3.1396 Y1.0778  
G01 X-2.9948 Y1.1066  
G01 X-2.8472 Y1.1066  
G01 X-2.7024 Y1.0778  
G01 X-2.5661 Y1.0213  
G01 X-2.4433 Y0.9393  
G01 X-2.3390 Y0.8350  
G01 X-2.2570 Y0.7122  
G01 X-2.2005 Y0.5759  
G01 X-2.1717 Y0.4311  
G01 X-2.1717 Y-2.2328 
G01 X-2.2005 Y-2.3776 
G01 X-2.2570 Y-2.5139 
G01 X-2.3390 Y-2.6366 
G01 X-2.4433 Y-2.7410 
G01 X-2.5661 Y-2.8230 
G01 X-2.7024 Y-2.8795 
G01 X-2.8472 Y-2.9083 
G01 X-54.7031 Y-2.9083 
G01 X-54.7878 Y-2.8914 
G01 X-54.8478 Y-2.8795 
G01 X-54.8793 Y-2.8665 
G01 X-54.9842 Y-2.8230 
G01 X-55.1069 Y-2.7410 
G01 X-55.2113 Y-2.6366 
G01 X-55.2933 Y-2.5139 
G01 X-55.3498 Y-2.3776 
G01 X-55.3786 Y-2.2328 
G01 X-55.3786 Y-2.0852 
G01 X-55.3617 Y-2.0004 
G01 X-55.3498 Y-1.9404 
G01 X-55.3367 Y-1.9090 
G01 X-55.2933 Y-1.8041 
G01 X-55.2113 Y-1.6813 
G01 X-55.1446 Y-1.6146 
G01 X-54.9783 Y-1.2132 
G01 X-54.9783 Y0.3017  
G01 X-55.0019 Y0.3587  
G01 X-55.0584 Y0.4951  
G01 X-55.0754 Y0.5806  
G01 X-55.0872 Y0.6398  
G01 X-55.0872 Y0.7874  
G01 X-55.0761 Y0.8434  
G01 X-55.0584 Y0.9322  
G01 X-55.0019 Y1.0686  
G01 X-54.9783 Y1.1256  
G01 X-54.9783 Y2.6405  
G01 X-54.9838 Y2.6538  
G01 X-54.9972 Y2.7212  
G01 X-55.0126 Y2.7986  
G01 X-55.0126 Y2.9462  
G01 X-54.9974 Y3.0224  
G01 X-54.9838 Y3.0909  
G01 X-54.9783 Y3.1042  
G01 X-54.9783 Y3.5387  
G01 X-55.1446 Y3.9402  
G01 X-55.4518 Y4.2474  
G01 X-55.8532 Y4.4137  
G01 X-55.9069 Y4.4137  
G01 X-56.0516 Y4.4425  
G01 X-56.1492 Y4.4829  
G01 X-56.1880 Y4.4990  
G01 X-56.3083 Y4.5793  
G01 X-56.4151 Y4.6853  
G01 X-56.4938 Y4.8032  
G01 X-56.4971 Y4.8081  
G01 X-56.5536 Y4.9444  
G01 X-56.5851 Y5.0206  
G01 X-56.8924 Y5.3278  
G01 X-57.2938 Y5.4941  
G01 X-57.7283 Y5.4941  
G01 X-58.1297 Y5.3278  
G01 X-58.4370 Y5.0206  
G01 X-58.6033 Y4.6192  
G01 X-58.6033 Y3.1042  
G01 X-58.5978 Y3.0910  
G01 X-58.5843 Y3.0235  
G01 X-58.5690 Y2.9462  
G01 X-58.5690 Y2.7986  
G01 X-58.5841 Y2.7223  
G01 X-58.5977 Y2.6538  
G01 X-58.6033 Y2.6405  
G01 X-58.6033 Y1.1256  
G01 X-58.5796 Y1.0686  
G01 X-58.5232 Y0.9322  
G01 X-58.5061 Y0.8467  
G01 X-58.4944 Y0.7875  
G01 X-58.4944 Y0.6399  
G01 X-58.5055 Y0.5839  
G01 X-58.5232 Y0.4951  
G01 X-58.5796 Y0.3587  
G01 X-58.6033 Y0.3017  
G01 X-58.6033 Y-1.2132 
G01 X-58.4370 Y-1.6146 
G01 X-58.3720 Y-1.6796 
G01 X-58.2905 Y-1.8008 
G01 X-58.2883 Y-1.8041 
G01 X-58.2462 Y-1.9057 
G01 X-58.2318 Y-1.9404 
G01 X-58.2205 Y-1.9972 
G01 X-58.2030 Y-2.0852 
G01 X-58.2030 Y-2.2328 
G01 X-58.2318 Y-2.3776 
G01 X-58.2883 Y-2.5139 
G01 X-58.3695 Y-2.6356 
G01 X-58.4730 Y-2.7394 
G01 X-58.5941 Y-2.8208 
G01 X-58.5974 Y-2.8230 
G01 X-58.6990 Y-2.8651 
G01 X-58.7337 Y-2.8795 
G01 X-58.7905 Y-2.8908 
G01 X-58.8785 Y-2.9083 
G01 X-61.9028 Y-2.9083 
G01 X-62.0476 Y-2.8795 
G01 X-62.1839 Y-2.8230 
G01 X-62.3067 Y-2.7410 
G01 X-62.4110 Y-2.6366 
G01 X-62.4930 Y-2.5139 
G01 X-62.5495 Y-2.3776 
G01 X-62.5783 Y-2.2328 
G01 X-62.5783 Y62.8248 
G01 X-62.5817 Y62.8515 
G01 X-62.5783 Y62.8984 
G01 X-62.5783 Y62.9455 
G01 X-62.5730 Y62.9719 
G01 X-62.5711 Y62.9987 
G01 X-62.5587 Y63.0441 
G01 X-62.5495 Y63.0902 
G01 X-62.5392 Y63.1151 
G01 X-62.5321 Y63.1411 
G01 X-62.5110 Y63.1831 
G01 X-62.4930 Y63.2266 
G01 X-62.4781 Y63.2490 
G01 X-62.4660 Y63.2731 
G01 X-62.4371 Y63.3102 
G01 X-62.4110 Y63.3493 
G01 X-62.3920 Y63.3684 
G01 X-62.3755 Y63.3896 
G01 X-62.3399 Y63.4204 
G01 X-62.3067 Y63.4537 
G01 X-62.2843 Y63.4686 
G01 X-62.2639 Y63.4863 
G01 X-62.2230 Y63.5095 
G01 X-62.1839 Y63.5357 
G01 X-62.1590 Y63.5460 
G01 X-62.1356 Y63.5593 
G01 X-62.0910 Y63.5742 
G01 X-62.0476 Y63.5922 
G01 X-62.0211 Y63.5974 
G01 X-61.9956 Y63.6059 
G01 X-61.9489 Y63.6118 
G01 X-61.9028 Y63.6210 
G01 X-61.8759 Y63.6210 
G01 X-61.8492 Y63.6243 
G01 X-61.8022 Y63.6210 
G01 X-61.7552 Y63.6210 
G01 X-61.7288 Y63.6157 
G01 X-61.7019 Y63.6138 
G01 X-61.6566 Y63.6014 
G01 X-61.6104 Y63.5922 
G01 X-61.5855 Y63.5819 
G01 X-61.5596 Y63.5747 
G01 X-61.5175 Y63.5537 
G01 X-61.4741 Y63.5357 
G01 X-61.4517 Y63.5207 
G01 X-61.4276 Y63.5087 
G01 X-61.3905 Y63.4798 
G01 X-61.3513 Y63.4537 
G01 X-61.3323 Y63.4346 
G01 X-61.3110 Y63.4181 
G01 X-61.2803 Y63.3826 
G01 X-61.2470 Y63.3493 
G01 X-61.2320 Y63.3269 
G01 X-61.0015 Y63.0608 
G01 X-60.0576 Y62.4542 
G01 X-58.9810 Y62.1381 
G01 X-57.8590 Y62.1381 
G01 X-56.7824 Y62.4542 
G01 X-55.8385 Y63.0608 
G01 X-55.1038 Y63.9088 
G01 X-54.6377 Y64.9294 
G01 X-54.4780 Y66.0400 
G01 X-54.6377 Y67.1506 
G01 X-55.1233 Y68.2139 
G01 X-55.1308 Y68.2251 
G01 X-55.1539 Y68.2810 
G01 X-55.1790 Y68.3359 
G01 X-55.1821 Y68.3490 
G01 X-55.1872 Y68.3614 
G01 X-55.1990 Y68.4208 
G01 X-55.2129 Y68.4795 
G01 X-55.2134 Y68.4930 
G01 X-55.2160 Y68.5062 
G01 X-55.2160 Y68.5666 
G01 X-55.2182 Y68.6270 
G01 X-55.2160 Y68.6403 
G01 X-55.2160 Y68.6538 
G01 X-55.2042 Y68.7131 
G01 X-55.1946 Y68.7727 
G01 X-55.1899 Y68.7853 
G01 X-55.1872 Y68.7986 
G01 X-55.1641 Y68.8544 
G01 X-55.1430 Y68.9110 
G01 X-55.1359 Y68.9225 
G01 X-55.1308 Y68.9349 
G01 X-55.0972 Y68.9852 
G01 X-55.0654 Y69.0366 
G01 X-55.0562 Y69.0464 
G01 X-55.0488 Y69.0577 
G01 X-55.0060 Y69.1004 
G01 X-54.9649 Y69.1446 
G01 X-54.9539 Y69.1525 
G01 X-54.9444 Y69.1620 
G01 X-54.8942 Y69.1956 
G01 X-54.8451 Y69.2309 
G01 X-54.8329 Y69.2365 
G01 X-54.8217 Y69.2440 
G01 X-54.7658 Y69.2672 
G01 X-54.7109 Y69.2922 
G01 X-54.6978 Y69.2953 
G01 X-54.6853 Y69.3005 
G01 X-54.6260 Y69.3123 
G01 X-54.5672 Y69.3262 
G01 X-54.5538 Y69.3267 
G01 X-54.5405 Y69.3293 
G01 X-54.4801 Y69.3293 
G01 X-54.4197 Y69.3315 
G01 X-54.4064 Y69.3293 
G01 X-9.0936 Y69.3293 
G01 X-9.0803 Y69.3315 
G01 X-9.0199 Y69.3293 
G01 X-8.9595 Y69.3293 
G01 X-8.9462 Y69.3267 
G01 X-8.9328 Y69.3262 
G01 X-8.8740 Y69.3123 
G01 X-8.8147 Y69.3005 
G01 X-8.8022 Y69.2953 
G01 X-8.7891 Y69.2922 
G01 X-8.7342 Y69.2672 
G01 X-8.6783 Y69.2440 
G01 X-8.6671 Y69.2365 
G01 X-8.6549 Y69.2309 
G01 X-8.6059 Y69.1956 
G01 X-8.5556 Y69.1620 
G01 X-8.5461 Y69.1525 
G01 X-8.5351 Y69.1446 
G01 X-8.4940 Y69.1004 
G01 X-8.4512 Y69.0576 
G01 X-8.4437 Y69.0464 
G01 X-8.4346 Y69.0366 
G01 X-8.4028 Y68.9852 
G01 X-8.3692 Y68.9349 
G01 X-8.3641 Y68.9225 
G01 X-8.3570 Y68.9110 
G01 X-8.3359 Y68.8544 
G01 X-8.3128 Y68.7986 
G01 X-8.3101 Y68.7853 
G01 X-8.3054 Y68.7727 
G01 X-8.2958 Y68.7131 
G01 X-8.2840 Y68.6538 
G01 X-8.2840 Y68.6403 
G01 X-8.2818 Y68.6270 
G01 X-8.2840 Y68.5666 
G01 X-8.2840 Y68.5062 
G01 X-8.2866 Y68.4930 
G01 X-8.2871 Y68.4795 
G01 X-8.3010 Y68.4207 
G01 X-8.3128 Y68.3614 
G01 X-8.3179 Y68.3490 
G01 X-8.3210 Y68.3359 
G01 X-8.3461 Y68.2809 
G01 X-8.3692 Y68.2251 
G01 X-8.3767 Y68.2139 
G01 X-8.8623 Y67.1506 
G01 X-9.0220 Y66.0400 
G01 X-8.8623 Y64.9294 
G01 X-8.7922 Y64.7759 
G01 X-8.7847 Y64.7646 
G01 X-8.7616 Y64.7088 
G01 X-8.7365 Y64.6539 
G01 X-8.7334 Y64.6407 
G01 X-8.7282 Y64.6283 
G01 X-8.7164 Y64.5690 
G01 X-8.7025 Y64.5102 
G01 X-8.7020 Y64.4967 
G01 X-8.6994 Y64.4835 
G01 X-8.6994 Y64.4231 
G01 X-8.6973 Y64.3627 
G01 X-8.6994 Y64.3494 
G01 X-8.6994 Y64.3359 
G01 X-8.7112 Y64.2767 
G01 X-8.7209 Y64.2170 
G01 X-8.7256 Y64.2044 
G01 X-8.7282 Y64.1912 
G01 X-8.7513 Y64.1353 
G01 X-8.7724 Y64.0787 
G01 X-8.7795 Y64.0673 
G01 X-8.7847 Y64.0548 
G01 X-8.8183 Y64.0045 
G01 X-8.8500 Y63.9532 
G01 X-8.8592 Y63.9433 
G01 X-8.8667 Y63.9321 
G01 X-8.9094 Y63.8894 
G01 X-8.9506 Y63.8451 
G01 X-8.9615 Y63.8372 
G01 X-8.9711 Y63.8277 
G01 X-9.0213 Y63.7941 
G01 X-9.0703 Y63.7588 
G01 X-9.0826 Y63.7532 
G01 X-9.0938 Y63.7457 
G01 X-9.1496 Y63.7226 
G01 X-9.2046 Y63.6975 
G01 X-9.2177 Y63.6944 
G01 X-9.2302 Y63.6892 
G01 X-9.2894 Y63.6774 
G01 X-9.3482 Y63.6635 
G01 X-9.3617 Y63.6631 
G01 X-9.3749 Y63.6604 
G01 X-9.4353 Y63.6604 
G01 X-9.4957 Y63.6583 
G01 X-9.5090 Y63.6604 
G01 X-9.5225 Y63.6604 
G01 X-9.5818 Y63.6722 
G01 X-9.6414 Y63.6819 
G01 X-9.6541 Y63.6866 
G01 X-9.6673 Y63.6892 
G01 X-9.7231 Y63.7123 
G01 X-9.7797 Y63.7335 
G01 X-9.7912 Y63.7405 
G01 X-9.8543 Y63.7667 
G01 X-19.4469 Y63.7667 
G01 X-19.5917 Y63.7955 
G01 X-19.7280 Y63.8520 
G01 X-19.8508 Y63.9340 
G01 X-19.9551 Y64.0383 
G01 X-21.9895 Y66.0727 
G01 X-22.5543 Y66.3067 
G01 X-40.9457 Y66.3067 
G01 X-41.5105 Y66.0727 
G01 X-42.1003 Y65.4829 
G01 X-44.4827 Y63.1005 
G01 X-44.7167 Y62.5357 
G01 X-44.7167 Y60.6322 
G01 X-44.7455 Y60.4874 
G01 X-44.8020 Y60.3511 
G01 X-44.8840 Y60.2283 
G01 X-44.9883 Y60.1240 
G01 X-45.1111 Y60.0420 
G01 X-45.2474 Y59.9855 
G01 X-45.3922 Y59.9567 
G01 X-46.1169 Y59.9567 
G01 X-46.2617 Y59.9855 
G01 X-46.3980 Y60.0420 
G01 X-46.5208 Y60.1240 
G01 X-46.6251 Y60.2283 
G01 X-47.3641 Y60.9673 
G01 X-47.9289 Y61.2013 
G01 X-48.5373 Y61.2013 
G01 X-48.5865 Y61.1981 
G01 X-48.6110 Y61.2013 
G01 X-48.6357 Y61.2013 
G01 X-48.6840 Y61.2109 
G01 X-48.7328 Y61.2173 
G01 X-48.7562 Y61.2253 
G01 X-48.7804 Y61.2301 
G01 X-48.8260 Y61.2490 
G01 X-48.8726 Y61.2648 
G01 X-48.8940 Y61.2771 
G01 X-48.9168 Y61.2866 
G01 X-48.9578 Y61.3140 
G01 X-49.1142 Y61.4043 
G01 X-49.5890 Y61.5315 
G01 X-52.0110 Y61.5315 
G01 X-52.4858 Y61.4043 
G01 X-52.9115 Y61.1585 
G01 X-53.2591 Y60.8109 
G01 X-53.5049 Y60.3852 
G01 X-53.6321 Y59.9104 
G01 X-53.6321 Y59.4188 
G01 X-53.5049 Y58.9440 
G01 X-53.2591 Y58.5183 
G01 X-52.9115 Y58.1707 
G01 X-52.4858 Y57.9249 
G01 X-52.3423 Y57.8865 
G01 X-52.3178 Y57.8833 
G01 X-52.2712 Y57.8674 
G01 X-52.2236 Y57.8547 
G01 X-52.2014 Y57.8437 
G01 X-52.1781 Y57.8358 
G01 X-52.1354 Y57.8112 
G01 X-52.0912 Y57.7894 
G01 X-52.0716 Y57.7744 
G01 X-52.0502 Y57.7620 
G01 X-52.0132 Y57.7295 
G01 X-51.9741 Y57.6995 
G01 X-51.9578 Y57.6810 
G01 X-51.9393 Y57.6647 
G01 X-51.9093 Y57.6256 
G01 X-51.8768 Y57.5886 
G01 X-51.8644 Y57.5672 
G01 X-51.8494 Y57.5476 
G01 X-51.8276 Y57.5034 
G01 X-51.8030 Y57.4607 
G01 X-51.7951 Y57.4374 
G01 X-51.7841 Y57.4152 
G01 X-51.7714 Y57.3676 
G01 X-51.7555 Y57.3210 
G01 X-51.7523 Y57.2965 
G01 X-51.7459 Y57.2727 
G01 X-51.7427 Y57.2235 
G01 X-51.7363 Y57.1746 
G01 X-51.7379 Y57.1500 
G01 X-51.7363 Y57.1254 
G01 X-51.7427 Y57.0765 
G01 X-51.7459 Y57.0274 
G01 X-51.7523 Y57.0035 
G01 X-51.7555 Y56.9790 
G01 X-51.7714 Y56.9324 
G01 X-51.7841 Y56.8848 
G01 X-51.7951 Y56.8626 
G01 X-51.8030 Y56.8393 
G01 X-51.8276 Y56.7966 
G01 X-51.8494 Y56.7524 
G01 X-51.8644 Y56.7328 
G01 X-51.8768 Y56.7114 
G01 X-51.9093 Y56.6744 
G01 X-51.9393 Y56.6353 
G01 X-51.9578 Y56.6190 
G01 X-51.9741 Y56.6005 
G01 X-52.0132 Y56.5705 
G01 X-52.0502 Y56.5380 
G01 X-52.0716 Y56.5256 
G01 X-52.0912 Y56.5106 
G01 X-52.1354 Y56.4888 
G01 X-52.1781 Y56.4642 
G01 X-52.2014 Y56.4563 
G01 X-52.2236 Y56.4453 
G01 X-52.2712 Y56.4326 
G01 X-52.3178 Y56.4167 
G01 X-52.3423 Y56.4135 
G01 X-52.4858 Y56.3751 
G01 X-52.9115 Y56.1293 
G01 X-53.2591 Y55.7817 
G01 X-53.5049 Y55.3560 
G01 X-53.6321 Y54.8812 
G01 X-53.6321 Y54.3896 
G01 X-53.5049 Y53.9148 
G01 X-53.2591 Y53.4891 
G01 X-52.9115 Y53.1415 
G01 X-52.7539 Y53.0505 
G01 X-52.7311 Y53.0411 
G01 X-52.6901 Y53.0137 
G01 X-52.6474 Y52.9891 
G01 X-52.6289 Y52.9728 
G01 X-52.6083 Y52.9591 
G01 X-52.5735 Y52.9242 
G01 X-52.5365 Y52.8917 
G01 X-52.5214 Y52.8721 
G01 X-52.5040 Y52.8547 
G01 X-52.4766 Y52.8137 
G01 X-52.4466 Y52.7746 
G01 X-52.4357 Y52.7525 
G01 X-52.4220 Y52.7320 
G01 X-52.4031 Y52.6864 
G01 X-52.3813 Y52.6423 
G01 X-52.3749 Y52.6184 
G01 X-52.3655 Y52.5956 
G01 X-52.3559 Y52.5473 
G01 X-52.3431 Y52.4997 
G01 X-52.3415 Y52.4751 
G01 X-52.3367 Y52.4508 
G01 X-52.3367 Y52.4016 
G01 X-52.3335 Y52.3524 
G01 X-52.3367 Y52.3279 
G01 X-52.3367 Y51.8121 
G01 X-52.3335 Y51.7876 
G01 X-52.3367 Y51.7384 
G01 X-52.3367 Y51.6892 
G01 X-52.3415 Y51.6649 
G01 X-52.3431 Y51.6403 
G01 X-52.3559 Y51.5927 
G01 X-52.3655 Y51.5444 
G01 X-52.3749 Y51.5216 
G01 X-52.3813 Y51.4977 
G01 X-52.4031 Y51.4536 
G01 X-52.4220 Y51.4080 
G01 X-52.4357 Y51.3875 
G01 X-52.4466 Y51.3654 
G01 X-52.4766 Y51.3263 
G01 X-52.5040 Y51.2853 
G01 X-52.5214 Y51.2679 
G01 X-52.5365 Y51.2483 
G01 X-52.5735 Y51.2158 
G01 X-52.6083 Y51.1809 
G01 X-52.6289 Y51.1672 
G01 X-52.6474 Y51.1509 
G01 X-52.6901 Y51.1263 
G01 X-52.7311 Y51.0989 
G01 X-52.7539 Y51.0895 
G01 X-52.9115 Y50.9985 
G01 X-53.2591 Y50.6509 
G01 X-53.3720 Y50.4553 
G01 X-53.3815 Y50.4324 
G01 X-53.4089 Y50.3915 
G01 X-53.4335 Y50.3488 
G01 X-53.4498 Y50.3302 
G01 X-53.4635 Y50.3097 
G01 X-53.4983 Y50.2749 
G01 X-53.5308 Y50.2378 
G01 X-53.5504 Y50.2228 
G01 X-55.4273 Y48.3460 
G01 X-55.9127 Y47.8605 
G01 X-56.1467 Y47.2957 
G01 X-56.1467 Y41.6043 
G01 X-55.9127 Y41.0395 
G01 X-55.3559 Y40.4826 
G01 X-55.2772 Y40.3648 
G01 X-55.2739 Y40.3599 
G01 X-55.2174 Y40.2236 
G01 X-55.1886 Y40.0788 
G01 X-55.1886 Y39.9312 
G01 X-55.2174 Y39.7864 
G01 X-55.2578 Y39.6889 
G01 X-55.2739 Y39.6501 
G01 X-55.3542 Y39.5298 
G01 X-55.4602 Y39.4230 
G01 X-55.9127 Y38.9705 
G01 X-56.1467 Y38.4057 
G01 X-56.1467 Y26.3185 
G01 X-56.1355 Y26.2620 
G01 X-56.1355 Y26.1890 
G01 X-56.1355 Y26.1144 
G01 X-56.1490 Y26.0464 
G01 X-56.1642 Y25.9696 
G01 X-56.1865 Y25.9160 
G01 X-56.2207 Y25.8333 
G01 X-56.2650 Y25.7670 
G01 X-56.3027 Y25.7105 
G01 X-56.3545 Y25.6588 
G01 X-56.4071 Y25.6062 
G01 X-56.4628 Y25.5689 
G01 X-56.5298 Y25.5242 
G01 X-56.5883 Y25.4999 
G01 X-56.6662 Y25.4677 
G01 X-56.7505 Y25.4328 
G01 X-57.2360 Y24.9473 
G01 X-57.3403 Y24.8429 
G01 X-57.9673 Y24.2160 
G01 X-58.4527 Y23.7305 
G01 X-58.6867 Y23.1657 
G01 X-58.6867 Y9.8543  
G01 X-58.4527 Y9.2895  
G01 X-58.0205 Y8.8572  
G01 X-57.4557 Y8.6233  
G01 X-53.0122 Y8.6233  
G01 X-52.8674 Y8.5945  
G01 X-52.7311 Y8.5380  
G01 X-52.6083 Y8.4560  
G01 X-52.5040 Y8.3517  
G01 X-52.4220 Y8.2289  
G01 X-52.3655 Y8.0926  
G01 X-52.3367 Y7.9478  
G01 X-52.3367 Y0.9643  
G01 X-52.1027 Y0.3995  
G01 X-51.6705 Y-0.0327 
G01 X-51.1057 Y-0.2667 
G01 X-42.3488 Y-0.2667 
G01 X-42.2823 Y-0.2654 
G01 X-42.2751 Y-0.2667 
G01 X-42.2677 Y-0.2667 
G01 X-42.2342 Y-0.2734 
G01 X-41.9686 Y-0.2681 
G01 X-41.9614 Y-0.2667 
G01 X-41.8949 Y-0.2667 
G01 X-41.8285 Y-0.2654 
G01 X-41.8212 Y-0.2667 
G01 X-41.5886 Y-0.2667 
G01 X-41.3756 Y-0.1735 
G01 X-41.3694 Y-0.1694 
G01 X-41.3080 Y-0.1439 
G01 X-41.2471 Y-0.1173 
G01 X-41.2399 Y-0.1157 
G01 X-41.0250 Y-0.0267 
G01 X-40.8639 Y0.1409  
G01 X-40.8597 Y0.1470  
G01 X-40.8126 Y0.1941  
G01 X-40.7667 Y0.2419  
G01 X-40.7606 Y0.2462  
G01 X-40.5961 Y0.4106  
G01 X-40.5114 Y0.6272  
G01 X-40.5099 Y0.6344  
G01 X-40.4845 Y0.6958  
G01 X-40.4603 Y0.7577  
G01 X-40.4563 Y0.7640  
G01 X-40.3673 Y0.9788  
G01 X-40.3719 Y1.2113  
G01 X-40.3733 Y1.2186  
G01 X-40.3733 Y1.2851  
G01 X-40.3746 Y1.3515  
G01 X-40.3733 Y1.3588  
G01 X-40.3733 Y1.6244  
G01 X-40.3806 Y1.6577  
G01 X-40.3807 Y1.6651  
G01 X-40.3822 Y1.6724  
G01 X-40.3822 Y1.7388  
G01 X-40.3972 Y2.5068  
G01 X-40.3987 Y2.5140  
G01 X-40.3987 Y2.5805  
G01 X-40.4000 Y2.6469  
G01 X-40.3987 Y2.6542  
G01 X-40.3987 Y4.0873  
G01 X-40.4019 Y4.1365  
G01 X-40.3987 Y4.1610  
G01 X-40.3987 Y4.1857  
G01 X-40.3891 Y4.2340  
G01 X-40.3827 Y4.2828  
G01 X-40.3747 Y4.3062  
G01 X-40.3699 Y4.3304  
G01 X-40.3510 Y4.3760  
G01 X-40.3352 Y4.4226  
G01 X-40.3229 Y4.4440  
G01 X-40.3134 Y4.4668  
G01 X-40.2860 Y4.5078  
G01 X-40.1957 Y4.6642  
G01 X-40.0685 Y5.1390  
G01 X-40.0685 Y7.5610  
G01 X-40.1957 Y8.0358  
G01 X-40.4415 Y8.4615  
G01 X-40.7891 Y8.8091  
G01 X-41.2148 Y9.0549  
G01 X-41.6896 Y9.1821  
G01 X-42.1812 Y9.1821  
G01 X-42.6560 Y9.0549  
G01 X-43.0817 Y8.8091  
G01 X-43.4293 Y8.4615  
G01 X-43.6751 Y8.0358  
G01 X-43.8023 Y7.5610  
G01 X-43.8023 Y5.1390  
G01 X-43.6751 Y4.6642  
G01 X-43.5847 Y4.5078  
G01 X-43.5574 Y4.4668  
G01 X-43.5479 Y4.4440  
G01 X-43.5356 Y4.4226  
G01 X-43.5198 Y4.3760  
G01 X-43.5009 Y4.3304  
G01 X-43.4961 Y4.3062  
G01 X-43.4881 Y4.2828  
G01 X-43.4817 Y4.2340  
G01 X-43.4721 Y4.1857  
G01 X-43.4721 Y4.1610  
G01 X-43.4689 Y4.1365  
G01 X-43.4721 Y4.0873  
G01 X-43.4721 Y3.4822  
G01 X-43.5009 Y3.3374  
G01 X-43.5574 Y3.2011  
G01 X-43.6394 Y3.0783  
G01 X-43.7437 Y2.9740  
G01 X-43.8665 Y2.8920  
G01 X-44.0028 Y2.8355  
G01 X-44.1476 Y2.8067  
G01 X-46.6011 Y2.8067  
G01 X-46.6256 Y2.8035  
G01 X-46.6747 Y2.8067  
G01 X-46.7240 Y2.8067  
G01 X-46.7482 Y2.8115  
G01 X-46.7729 Y2.8131  
G01 X-46.8204 Y2.8259  
G01 X-46.8687 Y2.8355  
G01 X-46.8916 Y2.8449  
G01 X-46.9154 Y2.8513  
G01 X-46.9596 Y2.8731  
G01 X-47.0051 Y2.8920  
G01 X-47.0256 Y2.9057  
G01 X-47.0478 Y2.9166  
G01 X-47.0869 Y2.9466  
G01 X-47.1278 Y2.9740  
G01 X-47.1453 Y2.9914  
G01 X-47.1649 Y3.0065  
G01 X-47.1974 Y3.0435  
G01 X-47.2322 Y3.0783  
G01 X-47.2459 Y3.0989  
G01 X-47.2622 Y3.1175  
G01 X-47.2868 Y3.1601  
G01 X-47.3142 Y3.2011  
G01 X-47.3236 Y3.2239  
G01 X-47.3360 Y3.2453  
G01 X-47.3518 Y3.2919  
G01 X-47.3707 Y3.3374  
G01 X-47.3755 Y3.3617  
G01 X-47.3834 Y3.3851  
G01 X-47.3899 Y3.4339  
G01 X-47.3995 Y3.4822  
G01 X-47.3995 Y3.5069  
G01 X-47.4027 Y3.5314  
G01 X-47.3995 Y3.5806  
G01 X-47.3995 Y3.6298  
G01 X-47.3946 Y3.6540  
G01 X-47.3930 Y3.6787  
G01 X-47.3803 Y3.7262  
G01 X-47.3707 Y3.7746  
G01 X-47.3612 Y3.7974  
G01 X-47.3548 Y3.8212  
G01 X-47.3330 Y3.8654  
G01 X-47.3142 Y3.9109  
G01 X-47.3005 Y3.9315  
G01 X-47.2895 Y3.9536  
G01 X-47.2595 Y3.9927  
G01 X-47.2322 Y4.0336  
G01 X-47.2147 Y4.0511  
G01 X-47.1997 Y4.0707  
G01 X-47.1626 Y4.1032  
G01 X-47.1278 Y4.1380  
G01 X-47.1073 Y4.1517  
G01 X-47.0887 Y4.1680  
G01 X-47.0460 Y4.1927  
G01 X-47.0051 Y4.2200  
G01 X-46.9823 Y4.2295  
G01 X-46.9609 Y4.2418  
G01 X-46.9142 Y4.2576  
G01 X-46.8687 Y4.2765  
G01 X-46.8445 Y4.2813  
G01 X-46.8211 Y4.2893  
G01 X-46.7723 Y4.2957  
G01 X-46.7254 Y4.3050  
G01 X-46.6087 Y4.3363  
G01 X-46.4749 Y4.3917  
G01 X-46.3494 Y4.4641  
G01 X-46.2345 Y4.5523  
G01 X-46.1321 Y4.6547  
G01 X-46.0439 Y4.7696  
G01 X-45.9715 Y4.8951  
G01 X-45.9161 Y5.0289  
G01 X-45.8786 Y5.1688  
G01 X-45.8597 Y5.3124  
G01 X-45.8597 Y5.6007  
G01 X-45.8851 Y5.6007  
G01 X-45.8851 Y5.2998  
G01 X-45.9117 Y5.1320  
G01 X-45.9642 Y4.9704  
G01 X-46.0413 Y4.8190  
G01 X-46.1412 Y4.6816  
G01 X-46.2614 Y4.5614  
G01 X-46.3988 Y4.4615  
G01 X-46.5502 Y4.3844  
G01 X-46.7118 Y4.3319  
G01 X-46.8796 Y4.3053  
G01 X-47.0496 Y4.3053  
G01 X-47.2174 Y4.3319  
G01 X-47.3790 Y4.3844  
G01 X-47.5304 Y4.4615  
G01 X-47.6678 Y4.5614  
G01 X-47.7880 Y4.6816  
G01 X-47.8879 Y4.8190  
G01 X-47.9650 Y4.9704  
G01 X-48.0175 Y5.1320  
G01 X-48.0441 Y5.2998  
G00 Z2.5400  
G00 X-51.8502 Y30.2641 
G01 Z-0.0500 F254   
G01 X-49.7498 Y30.2641 F508   
G01 X-49.5820 Y30.2375 
G01 X-49.4204 Y30.1850 
G01 X-49.2690 Y30.1079 
G01 X-49.1316 Y30.0080 
G01 X-49.0575 Y29.9339 
G01 X-48.5958 Y29.9339 
G01 X-43.9293 Y34.6004 
G01 X-43.9293 Y39.4438 
G01 X-43.9005 Y39.5886 
G01 X-43.8440 Y39.7249 
G01 X-43.7975 Y39.7945 
G01 X-43.7975 Y39.8959 
G01 X-43.7801 Y39.9379 
G01 X-43.7479 Y39.9701 
G01 X-43.7059 Y39.9875 
G01 X-43.6045 Y39.9875 
G01 X-43.5349 Y40.0340 
G01 X-43.3986 Y40.0905 
G01 X-43.2538 Y40.1193 
G01 X-43.1062 Y40.1193 
G01 X-42.9614 Y40.0905 
G01 X-42.8251 Y40.0340 
G01 X-42.7555 Y39.9875 
G01 X-42.6541 Y39.9875 
G01 X-42.6121 Y39.9701 
G01 X-42.5799 Y39.9379 
G01 X-42.5625 Y39.8959 
G01 X-42.5625 Y39.7945 
G01 X-42.5160 Y39.7249 
G01 X-42.4595 Y39.5886 
G01 X-42.4307 Y39.4438 
G01 X-42.4307 Y34.2162 
G01 X-42.4595 Y34.0714 
G01 X-42.5160 Y33.9351 
G01 X-42.5980 Y33.8123 
G01 X-42.7023 Y33.7080 
G01 X-47.8077 Y28.6026 
G01 X-47.9305 Y28.5206 
G01 X-48.0668 Y28.4641 
G01 X-48.2116 Y28.4353 
G01 X-49.0575 Y28.4353 
G01 X-49.1316 Y28.3612 
G01 X-49.2690 Y28.2613 
G01 X-49.4204 Y28.1842 
G01 X-49.5820 Y28.1317 
G01 X-49.7498 Y28.1051 
G01 X-51.8502 Y28.1051 
G01 X-52.0180 Y28.1317 
G01 X-52.1796 Y28.1842 
G01 X-52.3310 Y28.2613 
G01 X-52.4684 Y28.3612 
G01 X-52.5886 Y28.4814 
G01 X-52.6885 Y28.6188 
G01 X-52.7656 Y28.7702 
G01 X-52.8181 Y28.9318 
G01 X-52.8447 Y29.0996 
G01 X-52.8447 Y29.2696 
G01 X-52.8181 Y29.4374 
G01 X-52.7656 Y29.5990 
G01 X-52.6885 Y29.7504 
G01 X-52.5886 Y29.8878 
G01 X-52.4684 Y30.0080 
G01 X-52.3310 Y30.1079 
G01 X-52.1796 Y30.1850 
G01 X-52.0180 Y30.2375 
G01 X-51.8502 Y30.2641 
G00 Z2.5400  
G00 X-27.4955 Y6.0081  
G01 Z-0.0500 F254   
G01 X-27.4955 Y6.6919  F508   
G01 X-27.0119 Y7.1755  
G01 X-26.3281 Y7.1755  
G01 X-26.2519 Y7.0993  
G01 X-20.6304 Y7.0993  
G01 X-19.6320 Y8.0976  
G01 X-19.5277 Y8.2020  
G01 X-19.4049 Y8.2840  
G01 X-19.2686 Y8.3405  
G01 X-19.1238 Y8.3693  
G01 X-15.9893 Y8.3693  
G01 X-15.9893 Y12.7992 
G01 X-15.9605 Y12.9440 
G01 X-15.9040 Y13.0803 
G01 X-15.8220 Y13.2031 
G01 X-15.7458 Y13.2793 
G01 X-15.7586 Y13.2922 
G01 X-15.8585 Y13.4296 
G01 X-15.9356 Y13.5810 
G01 X-15.9881 Y13.7426 
G01 X-16.0147 Y13.9104 
G01 X-16.0147 Y14.0804 
G01 X-15.9881 Y14.2482 
G01 X-15.9356 Y14.4098 
G01 X-15.8585 Y14.5612 
G01 X-15.7586 Y14.6986 
G01 X-15.6384 Y14.8188 
G01 X-15.5010 Y14.9187 
G01 X-15.3496 Y14.9958 
G01 X-15.1880 Y15.0483 
G01 X-15.0202 Y15.0749 
G01 X-12.9198 Y15.0749 
G01 X-12.7520 Y15.0483 
G01 X-12.5904 Y14.9958 
G01 X-12.4390 Y14.9187 
G01 X-12.3016 Y14.8188 
G01 X-12.1814 Y14.6986 
G01 X-12.0815 Y14.5612 
G01 X-12.0044 Y14.4098 
G01 X-11.9519 Y14.2482 
G01 X-11.9253 Y14.0804 
G01 X-11.9253 Y13.9104 
G01 X-11.9519 Y13.7426 
G01 X-12.0044 Y13.5810 
G01 X-12.0815 Y13.4296 
G01 X-12.1814 Y13.2922 
G01 X-12.3016 Y13.1720 
G01 X-12.4390 Y13.0721 
G01 X-12.5904 Y12.9950 
G01 X-12.7520 Y12.9425 
G01 X-12.9198 Y12.9159 
G01 X-13.9898 Y12.9159 
G01 X-14.4907 Y12.4150 
G01 X-14.4907 Y7.5462  
G01 X-14.5195 Y7.4014  
G01 X-14.5760 Y7.2651  
G01 X-14.6580 Y7.1423  
G01 X-14.7623 Y7.0380  
G01 X-14.8851 Y6.9560  
G01 X-15.0214 Y6.8995  
G01 X-15.1662 Y6.8707  
G01 X-18.7396 Y6.8707  
G01 X-19.8423 Y5.7680  
G01 X-19.9651 Y5.6860  
G01 X-20.1014 Y5.6295  
G01 X-20.2462 Y5.6007  
G01 X-26.2519 Y5.6007  
G01 X-26.3281 Y5.5245  
G01 X-27.0119 Y5.5245  
G01 X-27.4955 Y6.0081  
G00 Z2.5400  
G00 X-51.8502 Y20.1041 
G01 Z-0.0500 F254   
G01 X-49.7498 Y20.1041 F508   
G01 X-49.5820 Y20.0775 
G01 X-49.4204 Y20.0250 
G01 X-49.2690 Y19.9479 
G01 X-49.1316 Y19.8480 
G01 X-49.0575 Y19.7739 
G01 X-47.2655 Y19.7739 
G01 X-42.4024 Y23.4273 
G01 X-42.3877 Y23.4420 
G01 X-42.3435 Y23.4715 
G01 X-42.3011 Y23.5034 
G01 X-42.2823 Y23.5124 
G01 X-42.2649 Y23.5240 
G01 X-42.2159 Y23.5443 
G01 X-42.1680 Y23.5673 
G01 X-42.1478 Y23.5725 
G01 X-42.1286 Y23.5805 
G01 X-42.0765 Y23.5909 
G01 X-42.0251 Y23.6041 
G01 X-42.0042 Y23.6052 
G01 X-41.9838 Y23.6093 
G01 X-41.9307 Y23.6093 
G01 X-41.8777 Y23.6122 
G01 X-41.8571 Y23.6093 
G01 X-40.4294 Y23.6093 
G01 X-40.3220 Y23.6538 
G01 X-40.1625 Y23.6855 
G01 X-38.5775 Y23.6855 
G01 X-38.4180 Y23.6538 
G01 X-38.2678 Y23.5915 
G01 X-38.1326 Y23.5012 
G01 X-38.0176 Y23.3862 
G01 X-37.9273 Y23.2510 
G01 X-37.8650 Y23.1008 
G01 X-37.8333 Y22.9413 
G01 X-37.8333 Y22.7787 
G01 X-37.8650 Y22.6192 
G01 X-37.9273 Y22.4690 
G01 X-38.0176 Y22.3338 
G01 X-38.1326 Y22.2188 
G01 X-38.2678 Y22.1285 
G01 X-38.4180 Y22.0662 
G01 X-38.5775 Y22.0345 
G01 X-40.1625 Y22.0345 
G01 X-40.3220 Y22.0662 
G01 X-40.4294 Y22.1107 
G01 X-41.6599 Y22.1107 
G01 X-46.5230 Y18.4573 
G01 X-46.5377 Y18.4426 
G01 X-46.5819 Y18.4131 
G01 X-46.6243 Y18.3812 
G01 X-46.6431 Y18.3722 
G01 X-46.6605 Y18.3606 
G01 X-46.7095 Y18.3403 
G01 X-46.7574 Y18.3173 
G01 X-46.7776 Y18.3121 
G01 X-46.7968 Y18.3041 
G01 X-46.8489 Y18.2937 
G01 X-46.9003 Y18.2805 
G01 X-46.9211 Y18.2794 
G01 X-46.9416 Y18.2753 
G01 X-46.9947 Y18.2753 
G01 X-47.0477 Y18.2724 
G01 X-47.0683 Y18.2753 
G01 X-49.0575 Y18.2753 
G01 X-49.1316 Y18.2012 
G01 X-49.2690 Y18.1013 
G01 X-49.4204 Y18.0242 
G01 X-49.5820 Y17.9717 
G01 X-49.7498 Y17.9451 
G01 X-51.8502 Y17.9451 
G01 X-52.0180 Y17.9717 
G01 X-52.1796 Y18.0242 
G01 X-52.3310 Y18.1013 
G01 X-52.4684 Y18.2012 
G01 X-52.5886 Y18.3214 
G01 X-52.6885 Y18.4588 
G01 X-52.7656 Y18.6102 
G01 X-52.8181 Y18.7718 
G01 X-52.8447 Y18.9396 
G01 X-52.8447 Y19.1096 
G01 X-52.8181 Y19.2774 
G01 X-52.7656 Y19.4390 
G01 X-52.6885 Y19.5904 
G01 X-52.5886 Y19.7278 
G01 X-52.4684 Y19.8480 
G01 X-52.3310 Y19.9479 
G01 X-52.1796 Y20.0250 
G01 X-52.0180 Y20.0775 
G01 X-51.8502 Y20.1041 
G00 Z2.5400  
G00 X-19.3919 Y18.6055 
G01 Z-0.0500 F254   
G01 X-18.7081 Y18.6055 F508   
G01 X-18.2245 Y18.1219 
G01 X-18.2245 Y17.4381 
G01 X-18.7081 Y16.9545 
G01 X-19.3919 Y16.9545 
G01 X-19.4681 Y17.0307 
G01 X-23.0706 Y17.0307 
G01 X-23.1780 Y16.9862 
G01 X-23.3375 Y16.9545 
G01 X-24.9225 Y16.9545 
G01 X-25.0820 Y16.9862 
G01 X-25.1894 Y17.0307 
G01 X-26.7438 Y17.0307 
G01 X-26.8886 Y17.0595 
G01 X-27.0249 Y17.1160 
G01 X-27.1477 Y17.1980 
G01 X-28.4177 Y18.4680 
G01 X-28.5220 Y18.5723 
G01 X-28.6040 Y18.6951 
G01 X-28.6605 Y18.8314 
G01 X-28.6893 Y18.9762 
G01 X-28.6893 Y32.2707 
G01 X-30.0070 Y32.2707 
G01 X-30.1220 Y32.1557 
G01 X-30.8380 Y32.1557 
G01 X-31.3443 Y32.6620 
G01 X-31.3443 Y33.3780 
G01 X-30.8380 Y33.8843 
G01 X-30.1220 Y33.8843 
G01 X-30.0070 Y33.7693 
G01 X-27.8662 Y33.7693 
G01 X-27.7214 Y33.7405 
G01 X-27.5851 Y33.6840 
G01 X-27.4623 Y33.6020 
G01 X-27.3580 Y33.4977 
G01 X-27.2760 Y33.3749 
G01 X-27.2195 Y33.2386 
G01 X-27.1907 Y33.0938 
G01 X-27.1907 Y19.3604 
G01 X-26.3596 Y18.5293 
G01 X-25.1894 Y18.5293 
G01 X-25.0820 Y18.5738 
G01 X-24.9225 Y18.6055 
G01 X-23.3375 Y18.6055 
G01 X-23.1780 Y18.5738 
G01 X-23.0706 Y18.5293 
G01 X-19.4681 Y18.5293 
G01 X-19.3919 Y18.6055 
G00 Z2.5400  
G00 X-38.5775 Y47.4345 
G01 Z-0.0500 F254   
G01 X-40.1625 Y47.4345 F508   
G01 X-40.3220 Y47.4662 
G01 X-40.4293 Y47.5107 
G01 X-40.7951 Y47.5107 
G01 X-40.8006 Y47.4833 
G01 X-40.8058 Y47.4393 
G01 X-40.8149 Y47.4111 
G01 X-40.8207 Y47.3821 
G01 X-40.8377 Y47.3411 
G01 X-40.8514 Y47.2989 
G01 X-40.8658 Y47.2731 
G01 X-40.8772 Y47.2457 
G01 X-40.9018 Y47.2089 
G01 X-40.9235 Y47.1701 
G01 X-40.9427 Y47.1476 
G01 X-40.9592 Y47.1230 
G01 X-40.9905 Y47.0916 
G01 X-41.0194 Y47.0579 
G01 X-41.0426 Y47.0396 
G01 X-41.4485 Y46.6336 
G01 X-41.6941 Y46.0408 
G01 X-41.6941 Y45.3922 
G01 X-41.7229 Y45.2474 
G01 X-41.7794 Y45.1111 
G01 X-41.8614 Y44.9883 
G01 X-41.9657 Y44.8840 
G01 X-42.0885 Y44.8020 
G01 X-42.2248 Y44.7455 
G01 X-42.3696 Y44.7167 
G01 X-46.0257 Y44.7167 
G01 X-46.5905 Y44.4827 
G01 X-47.1803 Y43.8929 
G01 X-47.4592 Y43.6140 
G01 X-47.5820 Y43.5320 
G01 X-47.7183 Y43.4755 
G01 X-47.8631 Y43.4467 
G01 X-47.9769 Y43.4467 
G01 X-48.0260 Y43.4435 
G01 X-48.0505 Y43.4467 
G01 X-48.0752 Y43.4467 
G01 X-48.1235 Y43.4563 
G01 X-48.1724 Y43.4627 
G01 X-48.1957 Y43.4707 
G01 X-48.2199 Y43.4755 
G01 X-48.2655 Y43.4944 
G01 X-48.3121 Y43.5102 
G01 X-48.3335 Y43.5225 
G01 X-48.3563 Y43.5320 
G01 X-48.3973 Y43.5594 
G01 X-48.4399 Y43.5840 
G01 X-48.4585 Y43.6003 
G01 X-48.4790 Y43.6140 
G01 X-48.5139 Y43.6488 
G01 X-48.5509 Y43.6813 
G01 X-48.5659 Y43.7009 
G01 X-48.5834 Y43.7183 
G01 X-48.5886 Y43.7261 
G01 X-49.0575 Y43.7261 
G01 X-49.1316 Y43.6520 
G01 X-49.2690 Y43.5521 
G01 X-49.4204 Y43.4750 
G01 X-49.5820 Y43.4225 
G01 X-49.7498 Y43.3959 
G01 X-51.8502 Y43.3959 
G01 X-52.0180 Y43.4225 
G01 X-52.1796 Y43.4750 
G01 X-52.3310 Y43.5521 
G01 X-52.4684 Y43.6520 
G01 X-52.5886 Y43.7722 
G01 X-52.6885 Y43.9096 
G01 X-52.7656 Y44.0610 
G01 X-52.8181 Y44.2226 
G01 X-52.8447 Y44.3904 
G01 X-52.8447 Y44.5604 
G01 X-52.8181 Y44.7282 
G01 X-52.7656 Y44.8898 
G01 X-52.6885 Y45.0412 
G01 X-52.5886 Y45.1786 
G01 X-52.4684 Y45.2988 
G01 X-52.3310 Y45.3987 
G01 X-52.1796 Y45.4758 
G01 X-52.0180 Y45.5283 
G01 X-51.8502 Y45.5549 
G01 X-51.5493 Y45.5549 
G01 X-51.5493 Y45.5803 
G01 X-51.8376 Y45.5803 
G01 X-51.9382 Y45.5671 
G01 X-51.9866 Y45.5574 
G01 X-52.0113 Y45.5574 
G01 X-52.0357 Y45.5542 
G01 X-52.0849 Y45.5574 
G01 X-52.1342 Y45.5574 
G01 X-52.1584 Y45.5623 
G01 X-52.1830 Y45.5639 
G01 X-52.2306 Y45.5766 
G01 X-52.2789 Y45.5862 
G01 X-52.3018 Y45.5957 
G01 X-52.3256 Y45.6021 
G01 X-52.3698 Y45.6239 
G01 X-52.4153 Y45.6427 
G01 X-52.4358 Y45.6564 
G01 X-52.4580 Y45.6674 
G01 X-52.4971 Y45.6973 
G01 X-52.5380 Y45.7247 
G01 X-52.5555 Y45.7422 
G01 X-52.5751 Y45.7572 
G01 X-52.6075 Y45.7942 
G01 X-52.6424 Y45.8291 
G01 X-52.6561 Y45.8496 
G01 X-52.6724 Y45.8682 
G01 X-52.6970 Y45.9108 
G01 X-52.7244 Y45.9518 
G01 X-52.7338 Y45.9746 
G01 X-52.7462 Y45.9960 
G01 X-52.7620 Y46.0427 
G01 X-52.7809 Y46.0882 
G01 X-52.7857 Y46.1124 
G01 X-52.7936 Y46.1358 
G01 X-52.8001 Y46.1846 
G01 X-52.8097 Y46.2329 
G01 X-52.8097 Y46.2576 
G01 X-52.8129 Y46.2821 
G01 X-52.8097 Y46.3313 
G01 X-52.8097 Y46.3805 
G01 X-52.8049 Y46.4048 
G01 X-52.8032 Y46.4294 
G01 X-52.7905 Y46.4770 
G01 X-52.7809 Y46.5253 
G01 X-52.7714 Y46.5481 
G01 X-52.7650 Y46.5720 
G01 X-52.7433 Y46.6161 
G01 X-52.7244 Y46.6617 
G01 X-52.7107 Y46.6822 
G01 X-52.6998 Y46.7043 
G01 X-52.6698 Y46.7434 
G01 X-52.6424 Y46.7844 
G01 X-52.6249 Y46.8018 
G01 X-52.6099 Y46.8214 
G01 X-52.5729 Y46.8539 
G01 X-51.9564 Y47.4704 
G01 X-51.8336 Y47.5524 
G01 X-51.6973 Y47.6089 
G01 X-51.5525 Y47.6377 
G01 X-49.5890 Y47.6377 
G01 X-49.1142 Y47.7649 
G01 X-48.6885 Y48.0107 
G01 X-48.3409 Y48.3583 
G01 X-48.0951 Y48.7840 
G01 X-47.9679 Y49.2588 
G01 X-47.9679 Y49.7504 
G01 X-48.0951 Y50.2252 
G01 X-48.3409 Y50.6509 
G01 X-48.6885 Y50.9985 
G01 X-48.8461 Y51.0895 
G01 X-48.8689 Y51.0989 
G01 X-48.9099 Y51.1263 
G01 X-48.9526 Y51.1509 
G01 X-48.9711 Y51.1672 
G01 X-48.9916 Y51.1809 
G01 X-49.0265 Y51.2158 
G01 X-49.0635 Y51.2483 
G01 X-49.0786 Y51.2679 
G01 X-49.0960 Y51.2853 
G01 X-49.1234 Y51.3263 
G01 X-49.1534 Y51.3654 
G01 X-49.1643 Y51.3875 
G01 X-49.1780 Y51.4080 
G01 X-49.1969 Y51.4536 
G01 X-49.2187 Y51.4977 
G01 X-49.2250 Y51.5216 
G01 X-49.2345 Y51.5444 
G01 X-49.2441 Y51.5927 
G01 X-49.2569 Y51.6403 
G01 X-49.2585 Y51.6649 
G01 X-49.2633 Y51.6892 
G01 X-49.2633 Y51.7384 
G01 X-49.2665 Y51.7876 
G01 X-49.2633 Y51.8121 
G01 X-49.2633 Y52.3978 
G01 X-49.2345 Y52.5426 
G01 X-49.1780 Y52.6789 
G01 X-49.0960 Y52.8017 
G01 X-48.9916 Y52.9060 
G01 X-48.8689 Y52.9880 
G01 X-48.7326 Y53.0445 
G01 X-48.5878 Y53.0733 
G01 X-44.9234 Y53.0733 
G01 X-44.8667 Y53.0620 
G01 X-44.7787 Y53.0445 
G01 X-44.6423 Y52.9880 
G01 X-44.5212 Y52.9071 
G01 X-44.4682 Y52.8546 
G01 X-44.4152 Y52.8017 
G01 X-44.3895 Y52.7631 
G01 X-44.3332 Y52.6789 
G01 X-44.3145 Y52.6338 
G01 X-44.2768 Y52.5426 
G01 X-44.2721 Y52.5192 
G01 X-44.2480 Y52.3978 
G01 X-44.2480 Y52.2502 
G01 X-44.2593 Y52.1934 
G01 X-44.2768 Y52.1054 
G01 X-44.3332 Y51.9691 
G01 X-44.4142 Y51.8479 
G01 X-44.4476 Y51.8140 
G01 X-44.5912 Y51.4673 
G01 X-44.6137 Y51.3543 
G01 X-44.6161 Y51.3485 
G01 X-44.7167 Y51.1057 
G01 X-44.7167 Y50.4943 
G01 X-44.6137 Y50.2457 
G01 X-44.5912 Y50.1327 
G01 X-44.4476 Y49.7860 
G01 X-44.1940 Y49.5324 
G01 X-43.8473 Y49.3888 
G01 X-43.7343 Y49.3663 
G01 X-43.7285 Y49.3639 
G01 X-43.4857 Y49.2633 
G01 X-41.6758 Y49.2633 
G01 X-41.6168 Y49.2656 
G01 X-41.6021 Y49.2633 
G01 X-41.5873 Y49.2633 
G01 X-41.5293 Y49.2518 
G01 X-41.4710 Y49.2425 
G01 X-41.4571 Y49.2374 
G01 X-41.4425 Y49.2345 
G01 X-41.3879 Y49.2119 
G01 X-41.3325 Y49.1914 
G01 X-41.3199 Y49.1837 
G01 X-41.3062 Y49.1780 
G01 X-41.2570 Y49.1452 
G01 X-41.2067 Y49.1143 
G01 X-41.1958 Y49.1043 
G01 X-41.1835 Y49.0960 
G01 X-41.1417 Y49.0542 
G01 X-41.0983 Y49.0141 
G01 X-41.0948 Y49.0093 
G01 X-40.4293 Y49.0093 
G01 X-40.3220 Y49.0538 
G01 X-40.1625 Y49.0855 
G01 X-38.5775 Y49.0855 
G01 X-38.4180 Y49.0538 
G01 X-38.3107 Y49.0093 
G01 X-37.9449 Y49.0093 
G01 X-37.9395 Y49.0366 
G01 X-37.9342 Y49.0807 
G01 X-37.9251 Y49.1089 
G01 X-37.9193 Y49.1379 
G01 X-37.9023 Y49.1789 
G01 X-37.8886 Y49.2210 
G01 X-37.8742 Y49.2469 
G01 X-37.8628 Y49.2743 
G01 X-37.8382 Y49.3112 
G01 X-37.8165 Y49.3498 
G01 X-37.7973 Y49.3724 
G01 X-37.7808 Y49.3970 
G01 X-37.7495 Y49.4283 
G01 X-37.7207 Y49.4621 
G01 X-37.6974 Y49.4804 
G01 X-37.2914 Y49.8864 
G01 X-37.0459 Y50.4792 
G01 X-37.0459 Y51.1208 
G01 X-37.2914 Y51.7136 
G01 X-37.7452 Y52.1673 
G01 X-38.3380 Y52.4129 
G01 X-40.4020 Y52.4129 
G01 X-40.5165 Y52.3655 
G01 X-40.6308 Y52.3428 
G01 X-40.6612 Y52.3367 
G01 X-42.8149 Y52.3367 
G01 X-42.8421 Y52.3421 
G01 X-42.9597 Y52.3655 
G01 X-43.0960 Y52.4220 
G01 X-43.1554 Y52.4616 
G01 X-43.2188 Y52.5040 
G01 X-43.3231 Y52.6083 
G01 X-43.3660 Y52.6726 
G01 X-43.4051 Y52.7311 
G01 X-43.4280 Y52.7864 
G01 X-43.4616 Y52.8674 
G01 X-43.4904 Y53.0122 
G01 X-43.4904 Y53.1598 
G01 X-43.4850 Y53.1870 
G01 X-43.4616 Y53.3046 
G01 X-43.4051 Y53.4409 
G01 X-43.3655 Y53.5003 
G01 X-43.3231 Y53.5636 
G01 X-43.2188 Y53.6680 
G01 X-43.0940 Y53.7927 
G01 X-42.9897 Y53.8971 
G01 X-41.5468 Y55.3400 
G01 X-41.5318 Y55.3596 
G01 X-41.4948 Y55.3920 
G01 X-41.4599 Y55.4268 
G01 X-41.4394 Y55.4406 
G01 X-41.4208 Y55.4569 
G01 X-41.3782 Y55.4815 
G01 X-41.3372 Y55.5089 
G01 X-41.3144 Y55.5183 
G01 X-41.2930 Y55.5307 
G01 X-41.2464 Y55.5465 
G01 X-41.2008 Y55.5653 
G01 X-41.1766 Y55.5702 
G01 X-41.1532 Y55.5781 
G01 X-41.1044 Y55.5845 
G01 X-41.0561 Y55.5941 
G01 X-41.0314 Y55.5941 
G01 X-41.0069 Y55.5974 
G01 X-40.9577 Y55.5941 
G01 X-40.9085 Y55.5941 
G01 X-40.8842 Y55.5893 
G01 X-40.8627 Y55.5879 
G01 X-40.3688 Y55.5879 
G01 X-39.8940 Y55.7151 
G01 X-39.4683 Y55.9609 
G01 X-39.1207 Y56.3085 
G01 X-38.8749 Y56.7342 
G01 X-38.8365 Y56.8777 
G01 X-38.8332 Y56.9022 
G01 X-38.8174 Y56.9488 
G01 X-38.8047 Y56.9964 
G01 X-38.7937 Y57.0186 
G01 X-38.7858 Y57.0419 
G01 X-38.7612 Y57.0846 
G01 X-38.7394 Y57.1288 
G01 X-38.7243 Y57.1484 
G01 X-38.7120 Y57.1698 
G01 X-38.6795 Y57.2068 
G01 X-38.6495 Y57.2459 
G01 X-38.6310 Y57.2622 
G01 X-38.6147 Y57.2807 
G01 X-38.5756 Y57.3107 
G01 X-38.5386 Y57.3432 
G01 X-38.5172 Y57.3556 
G01 X-38.4976 Y57.3706 
G01 X-38.4534 Y57.3924 
G01 X-38.4107 Y57.4170 
G01 X-38.3874 Y57.4249 
G01 X-38.3652 Y57.4359 
G01 X-38.3176 Y57.4486 
G01 X-38.2710 Y57.4645 
G01 X-38.2465 Y57.4677 
G01 X-38.2226 Y57.4741 
G01 X-38.1735 Y57.4773 
G01 X-38.1246 Y57.4837 
G01 X-38.1000 Y57.4821 
G01 X-38.0754 Y57.4837 
G01 X-38.0265 Y57.4773 
G01 X-37.9773 Y57.4741 
G01 X-37.9535 Y57.4677 
G01 X-37.9290 Y57.4645 
G01 X-37.8824 Y57.4486 
G01 X-37.8348 Y57.4359 
G01 X-37.8126 Y57.4249 
G01 X-37.7893 Y57.4170 
G01 X-37.7466 Y57.3924 
G01 X-37.7024 Y57.3706 
G01 X-37.6828 Y57.3556 
G01 X-37.6614 Y57.3432 
G01 X-37.6244 Y57.3107 
G01 X-37.5853 Y57.2807 
G01 X-37.5690 Y57.2622 
G01 X-37.5505 Y57.2459 
G01 X-37.5205 Y57.2068 
G01 X-37.4880 Y57.1698 
G01 X-37.4756 Y57.1484 
G01 X-37.4606 Y57.1288 
G01 X-37.4388 Y57.0846 
G01 X-37.4142 Y57.0419 
G01 X-37.4063 Y57.0186 
G01 X-37.3953 Y56.9964 
G01 X-37.3826 Y56.9488 
G01 X-37.3667 Y56.9022 
G01 X-37.3635 Y56.8777 
G01 X-37.3251 Y56.7342 
G01 X-37.0793 Y56.3085 
G01 X-36.7317 Y55.9609 
G01 X-36.3060 Y55.7151 
G01 X-35.8312 Y55.5879 
G01 X-35.2322 Y55.5879 
G01 X-35.0874 Y55.5591 
G01 X-34.9511 Y55.5026 
G01 X-34.8283 Y55.4206 
G01 X-34.7240 Y55.3163 
G01 X-34.6420 Y55.1935 
G01 X-34.5855 Y55.0572 
G01 X-34.5567 Y54.9124 
G01 X-34.5567 Y40.3343 
G01 X-34.3227 Y39.7695 
G01 X-33.8905 Y39.3372 
G01 X-33.3257 Y39.1033 
G01 X-31.5157 Y39.1033 
G01 X-31.3710 Y39.0745 
G01 X-31.2346 Y39.0180 
G01 X-31.1901 Y38.9883 
G01 X-29.7958 Y38.9883 
G01 X-28.8283 Y39.9558 
G01 X-28.8283 Y41.3242 
G01 X-29.7958 Y42.2917 
G01 X-30.8078 Y42.2917 
G01 X-30.9526 Y42.3205 
G01 X-31.0889 Y42.3770 
G01 X-31.2117 Y42.4590 
G01 X-31.3160 Y42.5633 
G01 X-31.3980 Y42.6861 
G01 X-31.4545 Y42.8224 
G01 X-31.4833 Y42.9672 
G01 X-31.4833 Y47.8949 
G01 X-31.4779 Y47.9221 
G01 X-31.4545 Y48.0397 
G01 X-31.3980 Y48.1760 
G01 X-31.3584 Y48.2354 
G01 X-31.3160 Y48.2988 
G01 X-31.2117 Y48.4031 
G01 X-31.1474 Y48.4460 
G01 X-31.0889 Y48.4851 
G01 X-31.0336 Y48.5081 
G01 X-30.9526 Y48.5416 
G01 X-30.8078 Y48.5704 
G01 X-30.6602 Y48.5704 
G01 X-30.6330 Y48.5650 
G01 X-30.5154 Y48.5416 
G01 X-30.3791 Y48.4851 
G01 X-30.3197 Y48.4455 
G01 X-30.2563 Y48.4031 
G01 X-30.1520 Y48.2988 
G01 X-30.0273 Y48.1740 
G01 X-28.8105 Y46.9572 
G01 X-28.2457 Y46.7233 
G01 X-27.1296 Y46.7233 
G01 X-26.9848 Y46.6945 
G01 X-26.8485 Y46.6380 
G01 X-26.7257 Y46.5560 
G01 X-26.6214 Y46.4517 
G01 X-26.5394 Y46.3289 
G01 X-26.4829 Y46.1926 
G01 X-26.4541 Y46.0478 
G01 X-26.4541 Y45.3992 
G01 X-26.2086 Y44.8064 
G01 X-25.8026 Y44.4004 
G01 X-25.7793 Y44.3821 
G01 X-25.7505 Y44.3483 
G01 X-25.7192 Y44.3170 
G01 X-25.7027 Y44.2923 
G01 X-25.6835 Y44.2698 
G01 X-25.6618 Y44.2312 
G01 X-25.6372 Y44.1943 
G01 X-25.6258 Y44.1669 
G01 X-25.6114 Y44.1410 
G01 X-25.5977 Y44.0989 
G01 X-25.5807 Y44.0579 
G01 X-25.5749 Y44.0289 
G01 X-25.5658 Y44.0007 
G01 X-25.5605 Y43.9566 
G01 X-25.5551 Y43.9293 
G01 X-25.1893 Y43.9293 
G01 X-25.0820 Y43.9738 
G01 X-24.9225 Y44.0055 
G01 X-23.3375 Y44.0055 
G01 X-23.1780 Y43.9738 
G01 X-23.1412 Y43.9585 
G01 X-22.3393 Y44.7604 
G01 X-22.3393 Y50.8738 
G01 X-22.3105 Y51.0186 
G01 X-22.2540 Y51.1549 
G01 X-22.1720 Y51.2777 
G01 X-21.9591 Y51.4906 
G01 X-22.0514 Y51.7136 
G01 X-22.3216 Y51.9838 
G01 X-22.4177 Y52.0799 
G01 X-22.4260 Y52.0882 
G01 X-22.4293 Y52.0931 
G01 X-22.5080 Y52.2109 
G01 X-22.5645 Y52.3473 
G01 X-22.5872 Y52.4616 
G01 X-22.5933 Y52.4920 
G01 X-22.5933 Y52.9749 
G01 X-22.5879 Y53.0021 
G01 X-22.5645 Y53.1197 
G01 X-22.5080 Y53.2560 
G01 X-22.4684 Y53.3154 
G01 X-22.4260 Y53.3788 
G01 X-22.3217 Y53.4831 
G01 X-22.2574 Y53.5260 
G01 X-22.1989 Y53.5651 
G01 X-22.1436 Y53.5881 
G01 X-22.0626 Y53.6216 
G01 X-21.9178 Y53.6504 
G01 X-21.7702 Y53.6504 
G01 X-21.7430 Y53.6450 
G01 X-21.6254 Y53.6216 
G01 X-21.4891 Y53.5651 
G01 X-21.4297 Y53.5255 
G01 X-21.3663 Y53.4831 
G01 X-21.2620 Y53.3788 
G01 X-21.1905 Y53.3072 
G01 X-20.6257 Y53.0733 
G01 X-16.1887 Y53.0733 
G01 X-16.1395 Y53.0765 
G01 X-16.1150 Y53.0733 
G01 X-16.0903 Y53.0733 
G01 X-16.0420 Y53.0637 
G01 X-15.9932 Y53.0573 
G01 X-15.9698 Y53.0493 
G01 X-15.9456 Y53.0445 
G01 X-15.9000 Y53.0256 
G01 X-15.8534 Y53.0098 
G01 X-15.8320 Y52.9975 
G01 X-15.8092 Y52.9880 
G01 X-15.7682 Y52.9606 
G01 X-15.6558 Y52.8957 
G01 X-15.3706 Y52.8193 
G01 X-12.5694 Y52.8193 
G01 X-12.2842 Y52.8957 
G01 X-11.8585 Y53.1415 
G01 X-11.5109 Y53.4891 
G01 X-11.2651 Y53.9148 
G01 X-11.1379 Y54.3896 
G01 X-11.1379 Y54.8812 
G01 X-11.2651 Y55.3560 
G01 X-11.5109 Y55.7817 
G01 X-11.8585 Y56.1293 
G01 X-12.2842 Y56.3751 
G01 X-12.7590 Y56.5023 
G01 X-15.1810 Y56.5023 
G01 X-15.6558 Y56.3751 
G01 X-15.8562 Y56.2594 
G01 X-15.8972 Y56.2320 
G01 X-15.9200 Y56.2225 
G01 X-15.9414 Y56.2102 
G01 X-15.9880 Y56.1944 
G01 X-16.0336 Y56.1755 
G01 X-16.0578 Y56.1707 
G01 X-16.0812 Y56.1627 
G01 X-16.1300 Y56.1563 
G01 X-16.1783 Y56.1467 
G01 X-16.2030 Y56.1467 
G01 X-16.2275 Y56.1435 
G01 X-16.2766 Y56.1467 
G01 X-19.3778 Y56.1467 
G01 X-19.5226 Y56.1755 
G01 X-19.6589 Y56.2320 
G01 X-19.7817 Y56.3140 
G01 X-19.8860 Y56.4183 
G01 X-19.9680 Y56.5411 
G01 X-20.0245 Y56.6774 
G01 X-20.0533 Y56.8222 
G01 X-20.0533 Y60.0178 
G01 X-20.0245 Y60.1626 
G01 X-19.9680 Y60.2989 
G01 X-19.8860 Y60.4216 
G01 X-19.7817 Y60.5260 
G01 X-19.6589 Y60.6080 
G01 X-19.5226 Y60.6645 
G01 X-19.3778 Y60.6933 
G01 X-16.7931 Y60.6933 
G01 X-16.7440 Y60.6965 
G01 X-16.7195 Y60.6933 
G01 X-16.6948 Y60.6933 
G01 X-16.6465 Y60.6837 
G01 X-16.5976 Y60.6773 
G01 X-16.5743 Y60.6693 
G01 X-16.5500 Y60.6645 
G01 X-16.5045 Y60.6456 
G01 X-16.4579 Y60.6298 
G01 X-16.4365 Y60.6175 
G01 X-16.4137 Y60.6080 
G01 X-16.3727 Y60.5806 
G01 X-16.3300 Y60.5560 
G01 X-16.3115 Y60.5397 
G01 X-16.2910 Y60.5260 
G01 X-16.2561 Y60.4912 
G01 X-16.2191 Y60.4587 
G01 X-16.2041 Y60.4391 
G01 X-16.1866 Y60.4216 
G01 X-16.1814 Y60.4139 
G01 X-15.7125 Y60.4139 
G01 X-15.6384 Y60.4880 
G01 X-15.5010 Y60.5879 
G01 X-15.3496 Y60.6650 
G01 X-15.1880 Y60.7175 
G01 X-15.0202 Y60.7441 
G01 X-12.9198 Y60.7441 
G01 X-12.7520 Y60.7175 
G01 X-12.5904 Y60.6650 
G01 X-12.4390 Y60.5879 
G01 X-12.3016 Y60.4880 
G01 X-12.2275 Y60.4139 
G01 X-11.7586 Y60.4139 
G01 X-11.7534 Y60.4216 
G01 X-11.7359 Y60.4391 
G01 X-11.7209 Y60.4587 
G01 X-11.6839 Y60.4912 
G01 X-11.6490 Y60.5260 
G01 X-11.6285 Y60.5397 
G01 X-11.6099 Y60.5560 
G01 X-11.5673 Y60.5806 
G01 X-11.5263 Y60.6080 
G01 X-11.5035 Y60.6175 
G01 X-11.4821 Y60.6298 
G01 X-11.4355 Y60.6456 
G01 X-11.3899 Y60.6645 
G01 X-11.3657 Y60.6693 
G01 X-11.3424 Y60.6773 
G01 X-11.2935 Y60.6837 
G01 X-11.2452 Y60.6933 
G01 X-11.2205 Y60.6933 
G01 X-11.1960 Y60.6965 
G01 X-11.1469 Y60.6933 
G01 X-11.0331 Y60.6933 
G01 X-10.8883 Y60.6645 
G01 X-10.7520 Y60.6080 
G01 X-10.6292 Y60.5260 
G01 X-10.5249 Y60.4216 
G01 X-9.3240 Y59.2208 
G01 X-9.2420 Y59.0980 
G01 X-9.1855 Y58.9617 
G01 X-9.1567 Y58.8169 
G01 X-9.1567 Y54.3043 
G01 X-8.9227 Y53.7395 
G01 X-6.8883 Y51.7051 
G01 X-6.7840 Y51.6008 
G01 X-6.7020 Y51.4780 
G01 X-6.6455 Y51.3417 
G01 X-6.6167 Y51.1969 
G01 X-6.6167 Y18.7222 
G01 X-6.6455 Y18.5774 
G01 X-6.7020 Y18.4411 
G01 X-6.7840 Y18.3183 
G01 X-6.8883 Y18.2140 
G01 X-7.0111 Y18.1320 
G01 X-7.1474 Y18.0755 
G01 X-7.2922 Y18.0467 
G01 X-10.4657 Y18.0467 
G01 X-10.8807 Y17.8748 
G01 X-10.9021 Y17.8624 
G01 X-10.9488 Y17.8466 
G01 X-10.9943 Y17.8277 
G01 X-11.0185 Y17.8229 
G01 X-11.0419 Y17.8150 
G01 X-11.0907 Y17.8086 
G01 X-11.1390 Y17.7989 
G01 X-11.1637 Y17.7989 
G01 X-11.1882 Y17.7957 
G01 X-11.2374 Y17.7989 
G01 X-11.2866 Y17.7989 
G01 X-11.3108 Y17.8038 
G01 X-11.3355 Y17.8054 
G01 X-11.3831 Y17.8181 
G01 X-11.4314 Y17.8277 
G01 X-11.4542 Y17.8372 
G01 X-11.4780 Y17.8436 
G01 X-11.5222 Y17.8654 
G01 X-11.5678 Y17.8842 
G01 X-11.5883 Y17.8979 
G01 X-11.6104 Y17.9089 
G01 X-11.6495 Y17.9389 
G01 X-11.6905 Y17.9662 
G01 X-11.7079 Y17.9837 
G01 X-11.7275 Y17.9987 
G01 X-11.7600 Y18.0358 
G01 X-11.7948 Y18.0706 
G01 X-11.8086 Y18.0911 
G01 X-11.8248 Y18.1097 
G01 X-11.8495 Y18.1524 
G01 X-11.8768 Y18.1933 
G01 X-11.8863 Y18.2161 
G01 X-11.8986 Y18.2375 
G01 X-11.9115 Y18.2753 
G01 X-12.2275 Y18.2753 
G01 X-12.3016 Y18.2012 
G01 X-12.4390 Y18.1013 
G01 X-12.5904 Y18.0242 
G01 X-12.7520 Y17.9717 
G01 X-12.9198 Y17.9451 
G01 X-13.2207 Y17.9451 
G01 X-13.2207 Y17.9197 
G01 X-12.9324 Y17.9197 
G01 X-12.7888 Y17.9386 
G01 X-12.6489 Y17.9761 
G01 X-12.5224 Y18.0285 
G01 X-12.4360 Y18.0457 
G01 X-12.3776 Y18.0573 
G01 X-12.2300 Y18.0573 
G01 X-12.0877 Y18.0290 
G01 X-11.9831 Y17.9862 
G01 X-11.9489 Y17.9720 
G01 X-11.8680 Y17.9179 
G01 X-11.8262 Y17.8900 
G01 X-11.7748 Y17.8386 
G01 X-11.7218 Y17.7857 
G01 X-11.6398 Y17.6629 
G01 X-11.5833 Y17.5266 
G01 X-11.5661 Y17.4402 
G01 X-11.5545 Y17.3818 
G01 X-11.5545 Y17.2342 
G01 X-11.5828 Y17.0919 
G01 X-11.6349 Y16.9649 
G01 X-11.6398 Y16.9531 
G01 X-11.6967 Y16.8157 
G01 X-11.6967 Y16.6033 
G01 X-11.6935 Y16.5788 
G01 X-11.6967 Y16.5296 
G01 X-11.6967 Y16.4804 
G01 X-11.7015 Y16.4561 
G01 X-11.7031 Y16.4315 
G01 X-11.7159 Y16.3839 
G01 X-11.7255 Y16.3356 
G01 X-11.7349 Y16.3128 
G01 X-11.7413 Y16.2889 
G01 X-11.7631 Y16.2448 
G01 X-11.7820 Y16.1992 
G01 X-11.7957 Y16.1787 
G01 X-11.8066 Y16.1566 
G01 X-11.8366 Y16.1175 
G01 X-11.8640 Y16.0765 
G01 X-11.8814 Y16.0590 
G01 X-11.8965 Y16.0395 
G01 X-11.9335 Y16.0070 
G01 X-11.9683 Y15.9721 
G01 X-11.9889 Y15.9584 
G01 X-12.0074 Y15.9421 
G01 X-12.0501 Y15.9175 
G01 X-12.0911 Y15.8901 
G01 X-12.1139 Y15.8807 
G01 X-12.1353 Y15.8683 
G01 X-12.1819 Y15.8525 
G01 X-12.2274 Y15.8337 
G01 X-12.2517 Y15.8288 
G01 X-12.2750 Y15.8209 
G01 X-12.3239 Y15.8145 
G01 X-12.3722 Y15.8049 
G01 X-12.3969 Y15.8049 
G01 X-12.4214 Y15.8016 
G01 X-12.4705 Y15.8049 
G01 X-12.5198 Y15.8049 
G01 X-12.5440 Y15.8097 
G01 X-12.5686 Y15.8113 
G01 X-12.6162 Y15.8240 
G01 X-12.6646 Y15.8337 
G01 X-12.6874 Y15.8431 
G01 X-12.7590 Y15.8623 
G01 X-15.1810 Y15.8623 
G01 X-15.6558 Y15.7351 
G01 X-16.0815 Y15.4893 
G01 X-16.4291 Y15.1417 
G01 X-16.6749 Y14.7160 
G01 X-16.8021 Y14.2412 
G01 X-16.8021 Y13.7496 
G01 X-16.7538 Y13.5692 
G01 X-16.7443 Y13.5464 
G01 X-16.7347 Y13.4981 
G01 X-16.7219 Y13.4505 
G01 X-16.7203 Y13.4258 
G01 X-16.7155 Y13.4016 
G01 X-16.7155 Y13.3524 
G01 X-16.7123 Y13.3032 
G01 X-16.7155 Y13.2787 
G01 X-16.7155 Y13.2540 
G01 X-16.7251 Y13.2057 
G01 X-16.7316 Y13.1569 
G01 X-16.7395 Y13.1335 
G01 X-16.7443 Y13.1093 
G01 X-16.7632 Y13.0638 
G01 X-16.7767 Y13.0239 
G01 X-16.7767 Y10.8252 
G01 X-16.8055 Y10.6805 
G01 X-16.8620 Y10.5441 
G01 X-16.8717 Y10.5295 
G01 X-16.8620 Y10.5149 
G01 X-16.8055 Y10.3786 
G01 X-16.7767 Y10.2338 
G01 X-16.7767 Y10.0862 
G01 X-16.8055 Y9.9414  
G01 X-16.8620 Y9.8051  
G01 X-16.9440 Y9.6823  
G01 X-17.0483 Y9.5780  
G01 X-17.1711 Y9.4960  
G01 X-17.3074 Y9.4395  
G01 X-17.4522 Y9.4107  
G01 X-18.6319 Y9.4107  
G01 X-18.7081 Y9.3345  
G01 X-19.3919 Y9.3345  
G01 X-19.4681 Y9.4107  
G01 X-19.7787 Y9.4107  
G01 X-19.7787 Y9.3011  
G01 X-19.8074 Y9.1564  
G01 X-19.8639 Y9.0200  
G01 X-19.9452 Y8.8984  
G01 X-20.0487 Y8.7946  
G01 X-20.5103 Y8.3329  
G01 X-20.7892 Y8.0540  
G01 X-20.9120 Y7.9720  
G01 X-21.0483 Y7.9155  
G01 X-21.1931 Y7.8867  
G01 X-25.6891 Y7.8867  
G01 X-25.8339 Y7.9155  
G01 X-25.9484 Y7.9629  
G01 X-27.3381 Y7.9629  
G01 X-27.6120 Y7.6890  
G01 X-27.7062 Y7.5948  
G01 X-27.7163 Y7.5846  
G01 X-27.8391 Y7.5026  
G01 X-27.8802 Y7.4856  
G01 X-27.9754 Y7.4461  
G01 X-28.1186 Y7.4177  
G01 X-28.2678 Y7.4173  
G01 X-28.4126 Y7.4461  
G01 X-28.5489 Y7.5026  
G01 X-28.6293 Y7.5563  
G01 X-28.6716 Y7.5846  
G01 X-28.7760 Y7.6890  
G01 X-28.8580 Y7.8117  
G01 X-28.8750 Y7.8528  
G01 X-28.9145 Y7.9481  
G01 X-28.9430 Y8.0912  
G01 X-28.9433 Y9.1957  
G01 X-29.1772 Y9.7605  
G01 X-29.5841 Y10.1673 
G01 X-29.6661 Y10.2900 
G01 X-29.7225 Y10.4264 
G01 X-29.7513 Y10.5711 
G01 X-29.7513 Y10.6807 
G01 X-30.0619 Y10.6807 
G01 X-30.1381 Y10.6045 
G01 X-30.8219 Y10.6045 
G01 X-31.3055 Y11.0881 
G01 X-31.3055 Y11.7719 
G01 X-31.2293 Y11.8481 
G01 X-31.2293 Y12.4658 
G01 X-31.3160 Y12.5525 
G01 X-31.3980 Y12.6753 
G01 X-31.4545 Y12.8116 
G01 X-31.4833 Y12.9564 
G01 X-31.4833 Y13.0057 
G01 X-31.7172 Y13.5705 
G01 X-33.8560 Y15.7092 
G01 X-33.9380 Y15.8320 
G01 X-33.9945 Y15.9683 
G01 X-34.0233 Y16.1131 
G01 X-34.0233 Y20.0636 
G01 X-34.0064 Y20.1484 
G01 X-33.9945 Y20.2084 
G01 X-33.9815 Y20.2398 
G01 X-33.9380 Y20.3447 
G01 X-33.9359 Y20.3480 
G01 X-33.8560 Y20.4675 
G01 X-33.8046 Y20.5188 
G01 X-33.7693 Y20.5542 
G01 X-33.7693 Y21.1719 
G01 X-33.8455 Y21.2481 
G01 X-33.8455 Y21.9319 
G01 X-33.3619 Y22.4155 
G01 X-32.6781 Y22.4155 
G01 X-32.1945 Y21.9319 
G01 X-32.1945 Y21.2481 
G01 X-32.2707 Y21.1719 
G01 X-32.2707 Y20.5542 
G01 X-32.1840 Y20.4674 
G01 X-32.1020 Y20.3447 
G01 X-32.0455 Y20.2084 
G01 X-32.0167 Y20.0636 
G01 X-32.0167 Y17.4743 
G01 X-31.7827 Y16.9095 
G01 X-28.8105 Y13.9372 
G01 X-28.2457 Y13.7033 
G01 X-25.4212 Y13.7033 
G01 X-25.2765 Y13.6745 
G01 X-25.2676 Y13.6708 
G01 X-25.1620 Y13.6271 
G01 X-25.0722 Y13.6271 
G01 X-24.9274 Y13.5983 
G01 X-24.7911 Y13.5418 
G01 X-24.6683 Y13.4598 
G01 X-24.5640 Y13.3555 
G01 X-24.4820 Y13.2327 
G01 X-24.4255 Y13.0964 
G01 X-24.3967 Y12.9516 
G01 X-24.3967 Y12.4108 
G01 X-24.4255 Y12.2661 
G01 X-24.4729 Y12.1516 
G01 X-24.4729 Y10.7619 
G01 X-23.5281 Y9.8171  
G01 X-22.1919 Y9.8171  
G01 X-21.2322 Y10.7768 
G01 X-21.2240 Y10.7851 
G01 X-21.2468 Y10.8998 
G01 X-21.2471 Y12.1516 
G01 X-21.2945 Y12.2661 
G01 X-21.3233 Y12.4108 
G01 X-21.3233 Y15.5678 
G01 X-21.2945 Y15.7126 
G01 X-21.2380 Y15.8489 
G01 X-21.1560 Y15.9717 
G01 X-21.0517 Y16.0760 
G01 X-20.9289 Y16.1580 
G01 X-20.7926 Y16.2145 
G01 X-20.6478 Y16.2433 
G01 X-20.0309 Y16.2433 
G01 X-19.8861 Y16.2145 
G01 X-19.7716 Y16.1671 
G01 X-18.3819 Y16.1671 
G01 X-17.4371 Y17.1119 
G01 X-17.4371 Y18.4481 
G01 X-17.5109 Y18.5219 
G01 X-17.6152 Y18.6262 
G01 X-17.6638 Y18.6988 
G01 X-17.6973 Y18.7490 
G01 X-17.7537 Y18.8853 
G01 X-17.7825 Y19.0301 
G01 X-17.7825 Y19.1777 
G01 X-17.7537 Y19.3224 
G01 X-17.6972 Y19.4588 
G01 X-17.6169 Y19.5791 
G01 X-17.6128 Y19.5840 
G01 X-17.3108 Y19.8860 
G01 X-17.2277 Y19.9415 
G01 X-17.1880 Y19.9680 
G01 X-17.1630 Y19.9784 
G01 X-17.0517 Y20.0245 
G01 X-16.9069 Y20.0533 
G01 X-16.7931 Y20.0533 
G01 X-16.7440 Y20.0565 
G01 X-16.7195 Y20.0533 
G01 X-16.6948 Y20.0533 
G01 X-16.6465 Y20.0437 
G01 X-16.5976 Y20.0373 
G01 X-16.5743 Y20.0293 
G01 X-16.5500 Y20.0245 
G01 X-16.5045 Y20.0056 
G01 X-16.4579 Y19.9898 
G01 X-16.4365 Y19.9775 
G01 X-16.4137 Y19.9680 
G01 X-16.3727 Y19.9406 
G01 X-16.3300 Y19.9160 
G01 X-16.3115 Y19.8997 
G01 X-16.2910 Y19.8860 
G01 X-16.2561 Y19.8512 
G01 X-16.2191 Y19.8187 
G01 X-16.2041 Y19.7991 
G01 X-16.1866 Y19.7817 
G01 X-16.1814 Y19.7739 
G01 X-15.7125 Y19.7739 
G01 X-15.6384 Y19.8480 
G01 X-15.5010 Y19.9479 
G01 X-15.3496 Y20.0250 
G01 X-15.1880 Y20.0775 
G01 X-15.0202 Y20.1041 
G01 X-12.9198 Y20.1041 
G01 X-12.7520 Y20.0775 
G01 X-12.5904 Y20.0250 
G01 X-12.4390 Y19.9479 
G01 X-12.3016 Y19.8480 
G01 X-12.2275 Y19.7739 
G01 X-11.7586 Y19.7739 
G01 X-11.7534 Y19.7817 
G01 X-11.7359 Y19.7991 
G01 X-11.7209 Y19.8187 
G01 X-11.6839 Y19.8512 
G01 X-11.6490 Y19.8860 
G01 X-11.6285 Y19.8997 
G01 X-11.6099 Y19.9160 
G01 X-11.5673 Y19.9406 
G01 X-11.5263 Y19.9680 
G01 X-11.5035 Y19.9775 
G01 X-11.4821 Y19.9898 
G01 X-11.4355 Y20.0056 
G01 X-11.3899 Y20.0245 
G01 X-11.3657 Y20.0293 
G01 X-11.3424 Y20.0373 
G01 X-11.2935 Y20.0437 
G01 X-11.2452 Y20.0533 
G01 X-11.2205 Y20.0533 
G01 X-11.1960 Y20.0565 
G01 X-11.1469 Y20.0533 
G01 X-9.8543 Y20.0533 
G01 X-9.2895 Y20.2872 
G01 X-8.8572 Y20.7195 
G01 X-8.6233 Y21.2843 
G01 X-8.6233 Y29.5157 
G01 X-8.8757 Y30.1251 
G01 X-8.9322 Y30.2614 
G01 X-8.9607 Y30.4046 
G01 X-8.9610 Y30.5538 
G01 X-8.9322 Y30.6986 
G01 X-8.6233 Y31.4443 
G01 X-8.6233 Y39.6757 
G01 X-8.9322 Y40.4214 
G01 X-8.9610 Y40.5662 
G01 X-8.9610 Y40.7138 
G01 X-8.9322 Y40.8586 
G01 X-8.8757 Y40.9949 
G01 X-8.6233 Y41.6043 
G01 X-8.6233 Y48.5657 
G01 X-8.8572 Y49.1305 
G01 X-10.0740 Y50.3473 
G01 X-10.5595 Y50.8327 
G01 X-11.1243 Y51.0667 
G01 X-11.7513 Y51.0667 
G01 X-11.8005 Y51.0635 
G01 X-11.8250 Y51.0667 
G01 X-11.8497 Y51.0667 
G01 X-11.8980 Y51.0763 
G01 X-11.9468 Y51.0827 
G01 X-11.9702 Y51.0907 
G01 X-11.9944 Y51.0955 
G01 X-12.0400 Y51.1144 
G01 X-12.0866 Y51.1302 
G01 X-12.1080 Y51.1425 
G01 X-12.1308 Y51.1520 
G01 X-12.1718 Y51.1793 
G01 X-12.2842 Y51.2443 
G01 X-12.5694 Y51.3207 
G01 X-15.3706 Y51.3207 
G01 X-15.6558 Y51.2443 
G01 X-16.0815 Y50.9985 
G01 X-16.4291 Y50.6509 
G01 X-16.6749 Y50.2252 
G01 X-16.8021 Y49.7504 
G01 X-16.8021 Y49.2588 
G01 X-16.6749 Y48.7840 
G01 X-16.4291 Y48.3583 
G01 X-16.0815 Y48.0107 
G01 X-15.6558 Y47.7649 
G01 X-15.5123 Y47.7265 
G01 X-15.4878 Y47.7233 
G01 X-15.4412 Y47.7074 
G01 X-15.3936 Y47.6947 
G01 X-15.3714 Y47.6837 
G01 X-15.3480 Y47.6758 
G01 X-15.3054 Y47.6512 
G01 X-15.2612 Y47.6294 
G01 X-15.2416 Y47.6143 
G01 X-15.2202 Y47.6020 
G01 X-15.1832 Y47.5695 
G01 X-15.1441 Y47.5395 
G01 X-15.1278 Y47.5210 
G01 X-15.1093 Y47.5047 
G01 X-15.0792 Y47.4656 
G01 X-15.0468 Y47.4286 
G01 X-15.0344 Y47.4072 
G01 X-15.0194 Y47.3876 
G01 X-14.9976 Y47.3434 
G01 X-14.9730 Y47.3007 
G01 X-14.9650 Y47.2774 
G01 X-14.9541 Y47.2552 
G01 X-14.9414 Y47.2076 
G01 X-14.9255 Y47.1610 
G01 X-14.9223 Y47.1365 
G01 X-14.9159 Y47.1126 
G01 X-14.9127 Y47.0635 
G01 X-14.9063 Y47.0146 
G01 X-14.9079 Y46.9900 
G01 X-14.9063 Y46.9654 
G01 X-14.9127 Y46.9165 
G01 X-14.9159 Y46.8673 
G01 X-14.9223 Y46.8435 
G01 X-14.9255 Y46.8190 
G01 X-14.9414 Y46.7724 
G01 X-14.9541 Y46.7248 
G01 X-14.9650 Y46.7026 
G01 X-14.9730 Y46.6793 
G01 X-14.9976 Y46.6366 
G01 X-15.0194 Y46.5924 
G01 X-15.0344 Y46.5728 
G01 X-15.0468 Y46.5514 
G01 X-15.0793 Y46.5144 
G01 X-15.1093 Y46.4753 
G01 X-15.1278 Y46.4590 
G01 X-15.1441 Y46.4405 
G01 X-15.1832 Y46.4104 
G01 X-15.2202 Y46.3780 
G01 X-15.2416 Y46.3656 
G01 X-15.2612 Y46.3506 
G01 X-15.3054 Y46.3288 
G01 X-15.3481 Y46.3042 
G01 X-15.3714 Y46.2963 
G01 X-15.3936 Y46.2853 
G01 X-15.4412 Y46.2726 
G01 X-15.4878 Y46.2567 
G01 X-15.5123 Y46.2535 
G01 X-15.6558 Y46.2151 
G01 X-15.8562 Y46.0994 
G01 X-15.8972 Y46.0720 
G01 X-15.9200 Y46.0625 
G01 X-15.9414 Y46.0502 
G01 X-15.9880 Y46.0344 
G01 X-16.0336 Y46.0155 
G01 X-16.0578 Y46.0107 
G01 X-16.0811 Y46.0027 
G01 X-16.1300 Y45.9963 
G01 X-16.1783 Y45.9867 
G01 X-16.2030 Y45.9867 
G01 X-16.2275 Y45.9835 
G01 X-16.2766 Y45.9867 
G01 X-18.0857 Y45.9867 
G01 X-18.6505 Y45.7527 
G01 X-19.1360 Y45.2673 
G01 X-19.2403 Y45.1629 
G01 X-21.3092 Y43.0940 
G01 X-21.3276 Y43.0707 
G01 X-21.3613 Y43.0419 
G01 X-21.3927 Y43.0106 
G01 X-21.4173 Y42.9941 
G01 X-21.4398 Y42.9749 
G01 X-21.4785 Y42.9532 
G01 X-21.5154 Y42.9286 
G01 X-21.5427 Y42.9172 
G01 X-21.5686 Y42.9028 
G01 X-21.5895 Y42.8960 
G01 X-21.6189 Y42.8251 
G01 X-21.7009 Y42.7024 
G01 X-21.8053 Y42.5980 
G01 X-21.9280 Y42.5160 
G01 X-22.0643 Y42.4595 
G01 X-22.2091 Y42.4307 
G01 X-23.0707 Y42.4307 
G01 X-23.1780 Y42.3862 
G01 X-23.3375 Y42.3545 
G01 X-24.9225 Y42.3545 
G01 X-25.0820 Y42.3862 
G01 X-25.1893 Y42.4307 
G01 X-25.5551 Y42.4307 
G01 X-25.5605 Y42.4034 
G01 X-25.5658 Y42.3593 
G01 X-25.5749 Y42.3311 
G01 X-25.5807 Y42.3021 
G01 X-25.5977 Y42.2611 
G01 X-25.6114 Y42.2189 
G01 X-25.6258 Y42.1931 
G01 X-25.6372 Y42.1657 
G01 X-25.6618 Y42.1288 
G01 X-25.6835 Y42.0902 
G01 X-25.7027 Y42.0676 
G01 X-25.7192 Y42.0430 
G01 X-25.7505 Y42.0116 
G01 X-25.7793 Y41.9779 
G01 X-25.8026 Y41.9596 
G01 X-26.2086 Y41.5536 
G01 X-26.4541 Y40.9608 
G01 X-26.4541 Y40.3192 
G01 X-26.3517 Y40.0721 
G01 X-26.2953 Y39.9357 
G01 X-26.2782 Y39.8501 
G01 X-26.2665 Y39.7909 
G01 X-26.2665 Y39.6433 
G01 X-26.2776 Y39.5874 
G01 X-26.2953 Y39.4986 
G01 X-26.3517 Y39.3622 
G01 X-26.4337 Y39.2395 
G01 X-26.8603 Y38.8129 
G01 X-28.3049 Y37.3683 
G01 X-28.4092 Y37.2640 
G01 X-28.5320 Y37.1820 
G01 X-28.6683 Y37.1255 
G01 X-28.8131 Y37.0967 
G01 X-33.3257 Y37.0967 
G01 X-33.8905 Y36.8627 
G01 X-34.3227 Y36.4305 
G01 X-34.5567 Y35.8657 
G01 X-34.5567 Y31.5372 
G01 X-34.5855 Y31.3924 
G01 X-34.6420 Y31.2561 
G01 X-34.7240 Y31.1333 
G01 X-34.8283 Y31.0290 
G01 X-34.9511 Y30.9470 
G01 X-35.0874 Y30.8905 
G01 X-35.2322 Y30.8617 
G01 X-36.4354 Y30.8617 
G01 X-36.4648 Y30.8558 
G01 X-36.4920 Y30.8504 
G01 X-36.6396 Y30.8504 
G01 X-36.7843 Y30.8792 
G01 X-36.8654 Y30.9128 
G01 X-36.9207 Y30.9357 
G01 X-36.9792 Y30.9748 
G01 X-37.0434 Y31.0177 
G01 X-37.1478 Y31.1221 
G01 X-37.2298 Y31.2448 
G01 X-37.2863 Y31.3812 
G01 X-37.2920 Y31.3951 
G01 X-37.3485 Y31.5314 
G01 X-37.3713 Y31.6458 
G01 X-37.3773 Y31.6762 
G01 X-37.3773 Y31.8238 
G01 X-37.3485 Y31.9686 
G01 X-37.3059 Y32.0714 
G01 X-37.2920 Y32.1049 
G01 X-37.0459 Y32.6992 
G01 X-37.0459 Y33.3408 
G01 X-37.3485 Y34.0714 
G01 X-37.3773 Y34.2162 
G01 X-37.3773 Y34.3638 
G01 X-37.3485 Y34.5086 
G01 X-37.3465 Y34.5135 
G01 X-37.0459 Y35.2392 
G01 X-37.0459 Y35.8808 
G01 X-37.3485 Y36.6114 
G01 X-37.3773 Y36.7562 
G01 X-37.3773 Y36.9038 
G01 X-37.3485 Y37.0486 
G01 X-37.3465 Y37.0535 
G01 X-37.0459 Y37.7792 
G01 X-37.0459 Y38.4208 
G01 X-37.3485 Y39.1514 
G01 X-37.3773 Y39.2962 
G01 X-37.3773 Y39.4438 
G01 X-37.3485 Y39.5886 
G01 X-37.3465 Y39.5935 
G01 X-37.0459 Y40.3192 
G01 X-37.0459 Y40.9608 
G01 X-37.3485 Y41.6914 
G01 X-37.3773 Y41.8362 
G01 X-37.3773 Y41.9838 
G01 X-37.3485 Y42.1286 
G01 X-37.3465 Y42.1335 
G01 X-37.0459 Y42.8592 
G01 X-37.0459 Y43.5008 
G01 X-37.3485 Y44.2314 
G01 X-37.3773 Y44.3762 
G01 X-37.3773 Y44.5238 
G01 X-37.3485 Y44.6686 
G01 X-37.3465 Y44.6735 
G01 X-37.0459 Y45.3992 
G01 X-37.0459 Y46.0408 
G01 X-37.2914 Y46.6336 
G01 X-37.6974 Y47.0396 
G01 X-37.7207 Y47.0579 
G01 X-37.7495 Y47.0916 
G01 X-37.7808 Y47.1230 
G01 X-37.7973 Y47.1476 
G01 X-37.8165 Y47.1702 
G01 X-37.8382 Y47.2088 
G01 X-37.8628 Y47.2457 
G01 X-37.8742 Y47.2731 
G01 X-37.8886 Y47.2989 
G01 X-37.9023 Y47.3411 
G01 X-37.9193 Y47.3821 
G01 X-37.9251 Y47.4111 
G01 X-37.9342 Y47.4393 
G01 X-37.9395 Y47.4834 
G01 X-37.9449 Y47.5107 
G01 X-38.3107 Y47.5107 
G01 X-38.4180 Y47.4662 
G01 X-38.5775 Y47.4345 
G00 Z2.5400  
G00 X-38.5775 Y44.8945 
G01 Z-0.0500 F254   
G01 X-40.1625 Y44.8945 F508   
G01 X-40.3220 Y44.9262 
G01 X-40.4722 Y44.9885 
G01 X-40.6074 Y45.0788 
G01 X-40.7224 Y45.1938 
G01 X-40.8127 Y45.3290 
G01 X-40.8750 Y45.4792 
G01 X-40.9067 Y45.6387 
G01 X-40.9067 Y45.8013 
G01 X-40.8750 Y45.9608 
G01 X-40.8127 Y46.1110 
G01 X-40.7224 Y46.2462 
G01 X-40.6074 Y46.3612 
G01 X-40.4722 Y46.4515 
G01 X-40.3220 Y46.5138 
G01 X-40.1625 Y46.5455 
G01 X-38.5775 Y46.5455 
G01 X-38.4180 Y46.5138 
G01 X-38.2678 Y46.4515 
G01 X-38.1326 Y46.3612 
G01 X-38.0176 Y46.2462 
G01 X-37.9273 Y46.1110 
G01 X-37.8650 Y45.9608 
G01 X-37.8333 Y45.8013 
G01 X-37.8333 Y45.6387 
G01 X-37.8650 Y45.4792 
G01 X-37.9273 Y45.3290 
G01 X-38.0176 Y45.1938 
G01 X-38.1326 Y45.0788 
G01 X-38.2678 Y44.9885 
G01 X-38.4180 Y44.9262 
G01 X-38.5775 Y44.8945 
G00 Z2.5400  
G00 X-38.5775 Y39.8145 
G01 Z-0.0500 F254   
G01 X-40.1625 Y39.8145 F508   
G01 X-40.3220 Y39.8462 
G01 X-40.4722 Y39.9085 
G01 X-40.6074 Y39.9988 
G01 X-40.7224 Y40.1138 
G01 X-40.8127 Y40.2490 
G01 X-40.8750 Y40.3992 
G01 X-40.9067 Y40.5587 
G01 X-40.9067 Y40.7213 
G01 X-40.8750 Y40.8808 
G01 X-40.8127 Y41.0310 
G01 X-40.7224 Y41.1662 
G01 X-40.6074 Y41.2812 
G01 X-40.4722 Y41.3715 
G01 X-40.3220 Y41.4338 
G01 X-40.1625 Y41.4655 
G01 X-38.5775 Y41.4655 
G01 X-38.4180 Y41.4338 
G01 X-38.2678 Y41.3715 
G01 X-38.1326 Y41.2812 
G01 X-38.0176 Y41.1662 
G01 X-37.9273 Y41.0310 
G01 X-37.8650 Y40.8808 
G01 X-37.8333 Y40.7213 
G01 X-37.8333 Y40.5587 
G01 X-37.8650 Y40.3992 
G01 X-37.9273 Y40.2490 
G01 X-38.0176 Y40.1138 
G01 X-38.1326 Y39.9988 
G01 X-38.2678 Y39.9085 
G01 X-38.4180 Y39.8462 
G01 X-38.5775 Y39.8145 
G00 Z2.5400  
G00 X-38.5775 Y37.2745 
G01 Z-0.0500 F254   
G01 X-40.1625 Y37.2745 F508   
G01 X-40.3220 Y37.3062 
G01 X-40.4722 Y37.3685 
G01 X-40.6074 Y37.4588 
G01 X-40.7224 Y37.5738 
G01 X-40.8127 Y37.7090 
G01 X-40.8750 Y37.8592 
G01 X-40.9067 Y38.0187 
G01 X-40.9067 Y38.1813 
G01 X-40.8750 Y38.3408 
G01 X-40.8127 Y38.4910 
G01 X-40.7224 Y38.6262 
G01 X-40.6074 Y38.7412 
G01 X-40.4722 Y38.8315 
G01 X-40.3220 Y38.8938 
G01 X-40.1625 Y38.9255 
G01 X-38.5775 Y38.9255 
G01 X-38.4180 Y38.8938 
G01 X-38.2678 Y38.8315 
G01 X-38.1326 Y38.7412 
G01 X-38.0176 Y38.6262 
G01 X-37.9273 Y38.4910 
G01 X-37.8650 Y38.3408 
G01 X-37.8333 Y38.1813 
G01 X-37.8333 Y38.0187 
G01 X-37.8650 Y37.8592 
G01 X-37.9273 Y37.7090 
G01 X-38.0176 Y37.5738 
G01 X-38.1326 Y37.4588 
G01 X-38.2678 Y37.3685 
G01 X-38.4180 Y37.3062 
G01 X-38.5775 Y37.2745 
G00 Z2.5400  
G00 X-38.5775 Y34.7345 
G01 Z-0.0500 F254   
G01 X-40.1625 Y34.7345 F508   
G01 X-40.3220 Y34.7662 
G01 X-40.4722 Y34.8285 
G01 X-40.6074 Y34.9188 
G01 X-40.7224 Y35.0338 
G01 X-40.8127 Y35.1690 
G01 X-40.8750 Y35.3192 
G01 X-40.9067 Y35.4787 
G01 X-40.9067 Y35.6413 
G01 X-40.8750 Y35.8008 
G01 X-40.8127 Y35.9510 
G01 X-40.7224 Y36.0862 
G01 X-40.6074 Y36.2012 
G01 X-40.4722 Y36.2915 
G01 X-40.3220 Y36.3538 
G01 X-40.1625 Y36.3855 
G01 X-38.5775 Y36.3855 
G01 X-38.4180 Y36.3538 
G01 X-38.2678 Y36.2915 
G01 X-38.1326 Y36.2012 
G01 X-38.0176 Y36.0862 
G01 X-37.9273 Y35.9510 
G01 X-37.8650 Y35.8008 
G01 X-37.8333 Y35.6413 
G01 X-37.8333 Y35.4787 
G01 X-37.8650 Y35.3192 
G01 X-37.9273 Y35.1690 
G01 X-38.0176 Y35.0338 
G01 X-38.1326 Y34.9188 
G01 X-38.2678 Y34.8285 
G01 X-38.4180 Y34.7662 
G01 X-38.5775 Y34.7345 
G00 Z2.5400  
G00 X-38.5775 Y32.1945 
G01 Z-0.0500 F254   
G01 X-40.1625 Y32.1945 F508   
G01 X-40.3220 Y32.2262 
G01 X-40.4722 Y32.2885 
G01 X-40.6074 Y32.3788 
G01 X-40.7224 Y32.4938 
G01 X-40.8127 Y32.6290 
G01 X-40.8750 Y32.7792 
G01 X-40.9067 Y32.9387 
G01 X-40.9067 Y33.1013 
G01 X-40.8750 Y33.2608 
G01 X-40.8127 Y33.4110 
G01 X-40.7224 Y33.5462 
G01 X-40.6074 Y33.6612 
G01 X-40.4722 Y33.7515 
G01 X-40.3220 Y33.8138 
G01 X-40.1625 Y33.8455 
G01 X-38.5775 Y33.8455 
G01 X-38.4180 Y33.8138 
G01 X-38.2678 Y33.7515 
G01 X-38.1326 Y33.6612 
G01 X-38.0176 Y33.5462 
G01 X-37.9273 Y33.4110 
G01 X-37.8650 Y33.2608 
G01 X-37.8333 Y33.1013 
G01 X-37.8333 Y32.9387 
G01 X-37.8650 Y32.7792 
G01 X-37.9273 Y32.6290 
G01 X-38.0176 Y32.4938 
G01 X-38.1326 Y32.3788 
G01 X-38.2678 Y32.2885 
G01 X-38.4180 Y32.2262 
G01 X-38.5775 Y32.1945 
G00 Z2.5400  
G00 X-38.5775 Y29.6545 
G01 Z-0.0500 F254   
G01 X-40.1625 Y29.6545 F508   
G01 X-40.3220 Y29.6862 
G01 X-40.4722 Y29.7485 
G01 X-40.6074 Y29.8388 
G01 X-40.7224 Y29.9538 
G01 X-40.8127 Y30.0890 
G01 X-40.8750 Y30.2392 
G01 X-40.9067 Y30.3987 
G01 X-40.9067 Y30.5613 
G01 X-40.8750 Y30.7208 
G01 X-40.8127 Y30.8710 
G01 X-40.7224 Y31.0062 
G01 X-40.6074 Y31.1212 
G01 X-40.4722 Y31.2115 
G01 X-40.3220 Y31.2738 
G01 X-40.1625 Y31.3055 
G01 X-38.5775 Y31.3055 
G01 X-38.4180 Y31.2738 
G01 X-38.2678 Y31.2115 
G01 X-38.1326 Y31.1212 
G01 X-38.0176 Y31.0062 
G01 X-37.9273 Y30.8710 
G01 X-37.8650 Y30.7208 
G01 X-37.8333 Y30.5613 
G01 X-37.8333 Y30.3987 
G01 X-37.8650 Y30.2392 
G01 X-37.9273 Y30.0890 
G01 X-38.0176 Y29.9538 
G01 X-38.1326 Y29.8388 
G01 X-38.2678 Y29.7485 
G01 X-38.4180 Y29.6862 
G01 X-38.5775 Y29.6545 
G00 Z2.5400  
G00 X-38.5775 Y27.1145 
G01 Z-0.0500 F254   
G01 X-40.1625 Y27.1145 F508   
G01 X-40.3220 Y27.1462 
G01 X-40.4722 Y27.2085 
G01 X-40.6074 Y27.2988 
G01 X-40.7224 Y27.4138 
G01 X-40.8127 Y27.5490 
G01 X-40.8750 Y27.6992 
G01 X-40.9067 Y27.8587 
G01 X-40.9067 Y28.0213 
G01 X-40.8750 Y28.1808 
G01 X-40.8127 Y28.3310 
G01 X-40.7224 Y28.4662 
G01 X-40.6074 Y28.5812 
G01 X-40.4722 Y28.6715 
G01 X-40.3220 Y28.7338 
G01 X-40.1625 Y28.7655 
G01 X-38.5775 Y28.7655 
G01 X-38.4180 Y28.7338 
G01 X-38.2678 Y28.6715 
G01 X-38.1326 Y28.5812 
G01 X-38.0176 Y28.4662 
G01 X-37.9273 Y28.3310 
G01 X-37.8650 Y28.1808 
G01 X-37.8333 Y28.0213 
G01 X-37.8333 Y27.8587 
G01 X-37.8650 Y27.6992 
G01 X-37.9273 Y27.5490 
G01 X-38.0176 Y27.4138 
G01 X-38.1326 Y27.2988 
G01 X-38.2678 Y27.2085 
G01 X-38.4180 Y27.1462 
G01 X-38.5775 Y27.1145 
G00 Z2.5400  
G00 X-38.5775 Y24.5745 
G01 Z-0.0500 F254   
G01 X-40.1625 Y24.5745 F508   
G01 X-40.3220 Y24.6062 
G01 X-40.4294 Y24.6507 
G01 X-42.9302 Y24.6507 
G01 X-47.7678 Y21.0225 
G01 X-47.7823 Y21.0080 
G01 X-47.8268 Y20.9783 
G01 X-47.8695 Y20.9463 
G01 X-47.8880 Y20.9374 
G01 X-47.9051 Y20.9260 
G01 X-47.9544 Y20.9055 
G01 X-48.0025 Y20.8825 
G01 X-48.0224 Y20.8774 
G01 X-48.0414 Y20.8695 
G01 X-48.0938 Y20.8591 
G01 X-48.1455 Y20.8458 
G01 X-48.1660 Y20.8447 
G01 X-48.1862 Y20.8407 
G01 X-48.2396 Y20.8407 
G01 X-48.2929 Y20.8378 
G01 X-48.3133 Y20.8407 
G01 X-53.8607 Y20.8407 
G01 X-53.8607 Y14.7447 
G01 X-52.5425 Y14.7447 
G01 X-52.4684 Y14.8188 
G01 X-52.3310 Y14.9187 
G01 X-52.1796 Y14.9958 
G01 X-52.0180 Y15.0483 
G01 X-51.8502 Y15.0749 
G01 X-49.7498 Y15.0749 
G01 X-49.5820 Y15.0483 
G01 X-49.4204 Y14.9958 
G01 X-49.2690 Y14.9187 
G01 X-49.1316 Y14.8188 
G01 X-49.0114 Y14.6986 
G01 X-48.9115 Y14.5612 
G01 X-48.8344 Y14.4098 
G01 X-48.7819 Y14.2482 
G01 X-48.7553 Y14.0804 
G01 X-48.7553 Y13.9104 
G01 X-48.7819 Y13.7426 
G01 X-48.8344 Y13.5810 
G01 X-48.9115 Y13.4296 
G01 X-49.0114 Y13.2922 
G01 X-49.1316 Y13.1720 
G01 X-49.2690 Y13.0721 
G01 X-49.4204 Y12.9950 
G01 X-49.5820 Y12.9425 
G01 X-49.7498 Y12.9159 
G01 X-51.8502 Y12.9159 
G01 X-52.0180 Y12.9425 
G01 X-52.1796 Y12.9950 
G01 X-52.3310 Y13.0721 
G01 X-52.4684 Y13.1720 
G01 X-52.5425 Y13.2461 
G01 X-54.4085 Y13.2461 
G01 X-54.5362 Y13.2207 
G01 X-54.6838 Y13.2207 
G01 X-54.8286 Y13.2495 
G01 X-54.9649 Y13.3060 
G01 X-55.0877 Y13.3880 
G01 X-55.1920 Y13.4923 
G01 X-55.2740 Y13.6151 
G01 X-55.3305 Y13.7514 
G01 X-55.3593 Y13.8962 
G01 X-55.3593 Y21.6638 
G01 X-55.3305 Y21.8086 
G01 X-55.2740 Y21.9449 
G01 X-55.1920 Y22.0677 
G01 X-55.0877 Y22.1720 
G01 X-54.9649 Y22.2540 
G01 X-54.8286 Y22.3105 
G01 X-54.6838 Y22.3393 
G01 X-48.5098 Y22.3393 
G01 X-43.6722 Y25.9675 
G01 X-43.6577 Y25.9820 
G01 X-43.6132 Y26.0117 
G01 X-43.5705 Y26.0437 
G01 X-43.5520 Y26.0526 
G01 X-43.5349 Y26.0640 
G01 X-43.4856 Y26.0845 
G01 X-43.4375 Y26.1075 
G01 X-43.4176 Y26.1126 
G01 X-43.3986 Y26.1205 
G01 X-43.3462 Y26.1309 
G01 X-43.2945 Y26.1442 
G01 X-43.2740 Y26.1453 
G01 X-43.2538 Y26.1493 
G01 X-43.2004 Y26.1493 
G01 X-43.1471 Y26.1522 
G01 X-43.1267 Y26.1493 
G01 X-40.4294 Y26.1493 
G01 X-40.3220 Y26.1938 
G01 X-40.1625 Y26.2255 
G01 X-38.5775 Y26.2255 
G01 X-38.4180 Y26.1938 
G01 X-38.2678 Y26.1315 
G01 X-38.1326 Y26.0412 
G01 X-38.0176 Y25.9262 
G01 X-37.9273 Y25.7910 
G01 X-37.8650 Y25.6408 
G01 X-37.8333 Y25.4813 
G01 X-37.8333 Y25.3187 
G01 X-37.8650 Y25.1592 
G01 X-37.9273 Y25.0090 
G01 X-38.0176 Y24.8738 
G01 X-38.1326 Y24.7588 
G01 X-38.2678 Y24.6684 
G01 X-38.4180 Y24.6062 
G01 X-38.5775 Y24.5745 
G00 Z2.5400  
G00 X-38.5775 Y19.4945 
G01 Z-0.0500 F254   
G01 X-40.1625 Y19.4945 F508   
G01 X-40.3220 Y19.5262 
G01 X-40.4722 Y19.5885 
G01 X-40.6074 Y19.6788 
G01 X-40.7224 Y19.7938 
G01 X-40.8127 Y19.9290 
G01 X-40.8750 Y20.0792 
G01 X-40.9067 Y20.2387 
G01 X-40.9067 Y20.4013 
G01 X-40.8750 Y20.5608 
G01 X-40.8127 Y20.7110 
G01 X-40.7224 Y20.8462 
G01 X-40.6074 Y20.9612 
G01 X-40.4722 Y21.0515 
G01 X-40.3220 Y21.1138 
G01 X-40.1625 Y21.1455 
G01 X-38.5775 Y21.1455 
G01 X-38.4180 Y21.1138 
G01 X-38.2678 Y21.0515 
G01 X-38.1326 Y20.9612 
G01 X-38.0176 Y20.8462 
G01 X-37.9273 Y20.7110 
G01 X-37.8650 Y20.5608 
G01 X-37.8333 Y20.4013 
G01 X-37.8333 Y20.2387 
G01 X-37.8650 Y20.0792 
G01 X-37.9273 Y19.9290 
G01 X-38.0176 Y19.7938 
G01 X-38.1326 Y19.6788 
G01 X-38.2678 Y19.5885 
G01 X-38.4180 Y19.5262 
G01 X-38.5775 Y19.4945 
G00 Z2.5400  
G00 X-38.5775 Y16.9545 
G01 Z-0.0500 F254   
G01 X-40.1625 Y16.9545 F508   
G01 X-40.3220 Y16.9862 
G01 X-40.4722 Y17.0485 
G01 X-40.6074 Y17.1388 
G01 X-40.7224 Y17.2538 
G01 X-40.8127 Y17.3890 
G01 X-40.8750 Y17.5392 
G01 X-40.9067 Y17.6987 
G01 X-40.9067 Y17.8613 
G01 X-40.8750 Y18.0208 
G01 X-40.8127 Y18.1710 
G01 X-40.7224 Y18.3062 
G01 X-40.6074 Y18.4212 
G01 X-40.4722 Y18.5115 
G01 X-40.3220 Y18.5738 
G01 X-40.1625 Y18.6055 
G01 X-38.5775 Y18.6055 
G01 X-38.4180 Y18.5738 
G01 X-38.2678 Y18.5115 
G01 X-38.1326 Y18.4212 
G01 X-38.0176 Y18.3062 
G01 X-37.9273 Y18.1710 
G01 X-37.8650 Y18.0208 
G01 X-37.8333 Y17.8613 
G01 X-37.8333 Y17.6987 
G01 X-37.8650 Y17.5392 
G01 X-37.9273 Y17.3890 
G01 X-38.0176 Y17.2538 
G01 X-38.1326 Y17.1388 
G01 X-38.2678 Y17.0485 
G01 X-38.4180 Y16.9862 
G01 X-38.5775 Y16.9545 
G00 Z2.5400  
G00 X-38.5775 Y14.4145 
G01 Z-0.0500 F254   
G01 X-38.6207 Y14.4145 F508   
G01 X-38.6207 Y13.4493 
G01 X-36.7562 Y13.4493 
G01 X-36.6114 Y13.4205 
G01 X-36.4751 Y13.3640 
G01 X-36.3523 Y13.2820 
G01 X-36.2480 Y13.1776 
G01 X-34.9780 Y11.9077 
G01 X-34.8960 Y11.7849 
G01 X-34.8395 Y11.6486 
G01 X-34.8107 Y11.5038 
G01 X-34.8107 Y7.0993  
G01 X-34.7081 Y7.0993  
G01 X-34.6319 Y7.1755  
G01 X-33.9481 Y7.1755  
G01 X-33.4645 Y6.6919  
G01 X-33.4645 Y6.0081  
G01 X-33.9481 Y5.5245  
G01 X-34.6319 Y5.5245  
G01 X-34.7081 Y5.6007  
G01 X-35.6338 Y5.6007  
G01 X-35.7786 Y5.6295  
G01 X-35.9149 Y5.6860  
G01 X-36.0376 Y5.7680  
G01 X-36.1420 Y5.8723  
G01 X-36.2240 Y5.9951  
G01 X-36.2805 Y6.1314  
G01 X-36.3093 Y6.2762  
G01 X-36.3093 Y11.1196 
G01 X-37.1404 Y11.9507 
G01 X-39.4438 Y11.9507 
G01 X-39.5886 Y11.9795 
G01 X-39.7249 Y12.0360 
G01 X-39.8477 Y12.1180 
G01 X-39.9520 Y12.2223 
G01 X-40.0340 Y12.3451 
G01 X-40.0905 Y12.4814 
G01 X-40.1193 Y12.6262 
G01 X-40.1193 Y14.4145 
G01 X-40.1625 Y14.4145 
G01 X-40.3220 Y14.4462 
G01 X-40.4722 Y14.5084 
G01 X-40.6074 Y14.5988 
G01 X-40.7224 Y14.7138 
G01 X-40.8127 Y14.8490 
G01 X-40.8750 Y14.9992 
G01 X-40.9067 Y15.1587 
G01 X-40.9067 Y15.3213 
G01 X-40.8750 Y15.4808 
G01 X-40.8127 Y15.6310 
G01 X-40.7224 Y15.7662 
G01 X-40.6074 Y15.8812 
G01 X-40.4722 Y15.9715 
G01 X-40.3220 Y16.0338 
G01 X-40.1625 Y16.0655 
G01 X-38.5775 Y16.0655 
G01 X-38.4180 Y16.0338 
G01 X-38.2678 Y15.9715 
G01 X-38.1326 Y15.8812 
G01 X-38.0176 Y15.7662 
G01 X-37.9273 Y15.6310 
G01 X-37.8650 Y15.4808 
G01 X-37.8333 Y15.3213 
G01 X-37.8333 Y15.1587 
G01 X-37.8650 Y14.9992 
G01 X-37.9273 Y14.8490 
G01 X-38.0176 Y14.7138 
G01 X-38.1326 Y14.5988 
G01 X-38.2678 Y14.5084 
G01 X-38.4180 Y14.4462 
G01 X-38.5775 Y14.4145 
G00 Z2.5400  
G00 X-24.9225 Y41.4655 
G01 Z-0.0500 F254   
G01 X-23.3375 Y41.4655 F508   
G01 X-23.1780 Y41.4338 
G01 X-23.0706 Y41.3893 
G01 X-21.9004 Y41.3893 
G01 X-18.3620 Y44.9276 
G01 X-18.2577 Y45.0320 
G01 X-18.1349 Y45.1140 
G01 X-17.9986 Y45.1705 
G01 X-17.8538 Y45.1993 
G01 X-15.7379 Y45.1993 
G01 X-15.6384 Y45.2988 
G01 X-15.5010 Y45.3987 
G01 X-15.3496 Y45.4758 
G01 X-15.1880 Y45.5283 
G01 X-15.0202 Y45.5549 
G01 X-12.9198 Y45.5549 
G01 X-12.7520 Y45.5283 
G01 X-12.5904 Y45.4758 
G01 X-12.4390 Y45.3987 
G01 X-12.3016 Y45.2988 
G01 X-12.1814 Y45.1786 
G01 X-12.0815 Y45.0412 
G01 X-12.0044 Y44.8898 
G01 X-11.9519 Y44.7282 
G01 X-11.9253 Y44.5604 
G01 X-11.9253 Y44.3904 
G01 X-11.9519 Y44.2226 
G01 X-12.0044 Y44.0610 
G01 X-12.0815 Y43.9096 
G01 X-12.1814 Y43.7722 
G01 X-12.3016 Y43.6520 
G01 X-12.4390 Y43.5521 
G01 X-12.5904 Y43.4750 
G01 X-12.7520 Y43.4225 
G01 X-12.9198 Y43.3959 
G01 X-15.0202 Y43.3959 
G01 X-15.1880 Y43.4225 
G01 X-15.3496 Y43.4750 
G01 X-15.5010 Y43.5521 
G01 X-15.6384 Y43.6520 
G01 X-15.6871 Y43.7007 
G01 X-17.4696 Y43.7007 
G01 X-21.1123 Y40.0580 
G01 X-21.2351 Y39.9760 
G01 X-21.3714 Y39.9195 
G01 X-21.5162 Y39.8907 
G01 X-23.0706 Y39.8907 
G01 X-23.1780 Y39.8462 
G01 X-23.3375 Y39.8145 
G01 X-24.9225 Y39.8145 
G01 X-25.0820 Y39.8462 
G01 X-25.2322 Y39.9085 
G01 X-25.3674 Y39.9988 
G01 X-25.4824 Y40.1138 
G01 X-25.5727 Y40.2490 
G01 X-25.6350 Y40.3992 
G01 X-25.6667 Y40.5587 
G01 X-25.6667 Y40.7213 
G01 X-25.6350 Y40.8808 
G01 X-25.5727 Y41.0310 
G01 X-25.4824 Y41.1662 
G01 X-25.3674 Y41.2812 
G01 X-25.2322 Y41.3715 
G01 X-25.0820 Y41.4338 
G01 X-24.9225 Y41.4655 
G00 Z2.5400  
G00 X-24.9225 Y46.5455 
G01 Z-0.0500 F254   
G01 X-23.3375 Y46.5455 F508   
G01 X-23.1780 Y46.5138 
G01 X-23.0278 Y46.4515 
G01 X-22.8926 Y46.3612 
G01 X-22.7776 Y46.2462 
G01 X-22.6873 Y46.1110 
G01 X-22.6250 Y45.9608 
G01 X-22.5933 Y45.8013 
G01 X-22.5933 Y45.6387 
G01 X-22.6250 Y45.4792 
G01 X-22.6873 Y45.3290 
G01 X-22.7776 Y45.1938 
G01 X-22.8926 Y45.0788 
G01 X-23.0278 Y44.9885 
G01 X-23.1780 Y44.9262 
G01 X-23.3375 Y44.8945 
G01 X-24.9225 Y44.8945 
G01 X-25.0820 Y44.9262 
G01 X-25.2322 Y44.9885 
G01 X-25.3674 Y45.0788 
G01 X-25.4824 Y45.1938 
G01 X-25.5727 Y45.3290 
G01 X-25.6350 Y45.4792 
G01 X-25.6667 Y45.6387 
G01 X-25.6667 Y45.8013 
G01 X-25.6350 Y45.9608 
G01 X-25.5727 Y46.1110 
G01 X-25.4824 Y46.2462 
G01 X-25.3674 Y46.3612 
G01 X-25.2322 Y46.4515 
G01 X-25.0820 Y46.5138 
G01 X-24.9225 Y46.5455 
G00 Z2.5400  
G00 X-24.9225 Y49.0855 
G01 Z-0.0500 F254   
G01 X-23.3375 Y49.0855 F508   
G01 X-23.1780 Y49.0538 
G01 X-23.0278 Y48.9915 
G01 X-22.8926 Y48.9012 
G01 X-22.7776 Y48.7862 
G01 X-22.6873 Y48.6510 
G01 X-22.6250 Y48.5008 
G01 X-22.5933 Y48.3413 
G01 X-22.5933 Y48.1787 
G01 X-22.6250 Y48.0192 
G01 X-22.6873 Y47.8690 
G01 X-22.7776 Y47.7338 
G01 X-22.8926 Y47.6188 
G01 X-23.0278 Y47.5284 
G01 X-23.1780 Y47.4662 
G01 X-23.3375 Y47.4345 
G01 X-24.9225 Y47.4345 
G01 X-25.0820 Y47.4662 
G01 X-25.1894 Y47.5107 
G01 X-28.0138 Y47.5107 
G01 X-28.1586 Y47.5395 
G01 X-28.2949 Y47.5960 
G01 X-28.4177 Y47.6780 
G01 X-29.6876 Y48.9480 
G01 X-29.7920 Y49.0523 
G01 X-29.8740 Y49.1751 
G01 X-29.9305 Y49.3114 
G01 X-29.9593 Y49.4562 
G01 X-29.9593 Y56.4956 
G01 X-30.0402 Y56.4544 
G01 X-30.2018 Y56.4019 
G01 X-30.3696 Y56.3753 
G01 X-30.5396 Y56.3753 
G01 X-30.7074 Y56.4019 
G01 X-30.8690 Y56.4544 
G01 X-31.0204 Y56.5315 
G01 X-31.1578 Y56.6314 
G01 X-31.2780 Y56.7516 
G01 X-31.3779 Y56.8890 
G01 X-31.4550 Y57.0404 
G01 X-31.5075 Y57.2020 
G01 X-31.5341 Y57.3698 
G01 X-31.5341 Y59.4702 
G01 X-31.5075 Y59.6380 
G01 X-31.4550 Y59.7996 
G01 X-31.3779 Y59.9510 
G01 X-31.2780 Y60.0884 
G01 X-31.1578 Y60.2086 
G01 X-31.0204 Y60.3085 
G01 X-30.8690 Y60.3856 
G01 X-30.7074 Y60.4381 
G01 X-30.5396 Y60.4647 
G01 X-30.3696 Y60.4647 
G01 X-30.2018 Y60.4381 
G01 X-30.0402 Y60.3856 
G01 X-29.8888 Y60.3085 
G01 X-29.7514 Y60.2086 
G01 X-29.6312 Y60.0884 
G01 X-29.5313 Y59.9510 
G01 X-29.4542 Y59.7996 
G01 X-29.4017 Y59.6380 
G01 X-29.3751 Y59.4702 
G01 X-29.3751 Y58.4002 
G01 X-28.6280 Y57.6531 
G01 X-28.5460 Y57.5303 
G01 X-28.4895 Y57.3940 
G01 X-28.4607 Y57.2492 
G01 X-28.4607 Y49.8404 
G01 X-27.6296 Y49.0093 
G01 X-25.1894 Y49.0093 
G01 X-25.0820 Y49.0538 
G01 X-24.9225 Y49.0855 
G00 Z2.5400  
G00 X-24.9225 Y51.6255 
G01 Z-0.0500 F254   
G01 X-24.8793 Y51.6255 F508   
G01 X-24.8793 Y56.5215 
G01 X-25.0110 Y56.4544 
G01 X-25.1726 Y56.4019 
G01 X-25.3404 Y56.3753 
G01 X-25.5104 Y56.3753 
G01 X-25.6782 Y56.4019 
G01 X-25.8398 Y56.4544 
G01 X-25.9912 Y56.5315 
G01 X-26.1286 Y56.6314 
G01 X-26.2488 Y56.7516 
G01 X-26.3487 Y56.8890 
G01 X-26.4258 Y57.0404 
G01 X-26.4783 Y57.2020 
G01 X-26.5049 Y57.3698 
G01 X-26.5049 Y59.4702 
G01 X-26.4783 Y59.6380 
G01 X-26.4258 Y59.7996 
G01 X-26.3487 Y59.9510 
G01 X-26.2488 Y60.0884 
G01 X-26.1286 Y60.2086 
G01 X-25.9912 Y60.3085 
G01 X-25.8398 Y60.3856 
G01 X-25.6782 Y60.4381 
G01 X-25.5104 Y60.4647 
G01 X-25.3404 Y60.4647 
G01 X-25.1726 Y60.4381 
G01 X-25.0110 Y60.3856 
G01 X-24.8596 Y60.3085 
G01 X-24.7222 Y60.2086 
G01 X-24.6020 Y60.0884 
G01 X-24.5021 Y59.9510 
G01 X-24.4250 Y59.7996 
G01 X-24.3725 Y59.6380 
G01 X-24.3459 Y59.4702 
G01 X-24.3459 Y58.4002 
G01 X-23.6524 Y57.7066 
G01 X-23.5480 Y57.6023 
G01 X-23.4660 Y57.4795 
G01 X-23.4095 Y57.3432 
G01 X-23.3807 Y57.1984 
G01 X-23.3807 Y51.6255 
G01 X-23.3375 Y51.6255 
G01 X-23.1780 Y51.5938 
G01 X-23.0278 Y51.5315 
G01 X-22.8926 Y51.4412 
G01 X-22.7776 Y51.3262 
G01 X-22.6873 Y51.1910 
G01 X-22.6250 Y51.0408 
G01 X-22.5933 Y50.8813 
G01 X-22.5933 Y50.7187 
G01 X-22.6250 Y50.5592 
G01 X-22.6873 Y50.4090 
G01 X-22.7776 Y50.2738 
G01 X-22.8926 Y50.1588 
G01 X-23.0278 Y50.0685 
G01 X-23.1780 Y50.0062 
G01 X-23.3375 Y49.9745 
G01 X-24.9225 Y49.9745 
G01 X-25.0820 Y50.0062 
G01 X-25.2322 Y50.0685 
G01 X-25.3674 Y50.1588 
G01 X-25.4824 Y50.2738 
G01 X-25.5727 Y50.4090 
G01 X-25.6350 Y50.5592 
G01 X-25.6667 Y50.7187 
G01 X-25.6667 Y50.8813 
G01 X-25.6350 Y51.0408 
G01 X-25.5727 Y51.1910 
G01 X-25.4824 Y51.3262 
G01 X-25.3674 Y51.4412 
G01 X-25.2322 Y51.5315 
G01 X-25.0820 Y51.5938 
G01 X-24.9225 Y51.6255 
G00 Z2.5400  
G00 X-24.9225 Y28.7655 
G01 Z-0.0500 F254   
G01 X-23.3375 Y28.7655 F508   
G01 X-23.1780 Y28.7338 
G01 X-23.1412 Y28.7185 
G01 X-22.3393 Y29.5204 
G01 X-22.3393 Y30.5538 
G01 X-22.3105 Y30.6986 
G01 X-22.2540 Y30.8349 
G01 X-22.1720 Y30.9577 
G01 X-18.2323 Y34.8974 
G01 X-18.1095 Y34.9794 
G01 X-17.9732 Y35.0359 
G01 X-17.8284 Y35.0647 
G01 X-15.7125 Y35.0647 
G01 X-15.6384 Y35.1388 
G01 X-15.5010 Y35.2387 
G01 X-15.3496 Y35.3158 
G01 X-15.1880 Y35.3683 
G01 X-15.0202 Y35.3949 
G01 X-12.9198 Y35.3949 
G01 X-12.7520 Y35.3683 
G01 X-12.5904 Y35.3158 
G01 X-12.4390 Y35.2387 
G01 X-12.3016 Y35.1388 
G01 X-12.1814 Y35.0186 
G01 X-12.0815 Y34.8812 
G01 X-12.0044 Y34.7298 
G01 X-11.9519 Y34.5682 
G01 X-11.9253 Y34.4004 
G01 X-11.9253 Y34.2304 
G01 X-11.9519 Y34.0626 
G01 X-12.0044 Y33.9010 
G01 X-12.0815 Y33.7496 
G01 X-12.1814 Y33.6122 
G01 X-12.3016 Y33.4920 
G01 X-12.4390 Y33.3921 
G01 X-12.5904 Y33.3150 
G01 X-12.7520 Y33.2625 
G01 X-12.9198 Y33.2359 
G01 X-15.0202 Y33.2359 
G01 X-15.1880 Y33.2625 
G01 X-15.3496 Y33.3150 
G01 X-15.5010 Y33.3921 
G01 X-15.6384 Y33.4920 
G01 X-15.7125 Y33.5661 
G01 X-17.4442 Y33.5661 
G01 X-20.8407 Y30.1696 
G01 X-20.8407 Y29.1362 
G01 X-20.8695 Y28.9914 
G01 X-20.9260 Y28.8551 
G01 X-21.0080 Y28.7323 
G01 X-21.1123 Y28.6280 
G01 X-22.3823 Y27.3580 
G01 X-22.5051 Y27.2760 
G01 X-22.6414 Y27.2195 
G01 X-22.7862 Y27.1907 
G01 X-23.0706 Y27.1907 
G01 X-23.1780 Y27.1462 
G01 X-23.3375 Y27.1145 
G01 X-24.9225 Y27.1145 
G01 X-25.0820 Y27.1462 
G01 X-25.2322 Y27.2085 
G01 X-25.3674 Y27.2988 
G01 X-25.4824 Y27.4138 
G01 X-25.5727 Y27.5490 
G01 X-25.6350 Y27.6992 
G01 X-25.6667 Y27.8587 
G01 X-25.6667 Y28.0213 
G01 X-25.6350 Y28.1808 
G01 X-25.5727 Y28.3310 
G01 X-25.4824 Y28.4662 
G01 X-25.3674 Y28.5812 
G01 X-25.2322 Y28.6715 
G01 X-25.0820 Y28.7338 
G01 X-24.9225 Y28.7655 
G00 Z2.5400  
G00 X-24.9225 Y31.3055 
G01 Z-0.0500 F254   
G01 X-23.3375 Y31.3055 F508   
G01 X-23.1780 Y31.2738 
G01 X-23.0278 Y31.2115 
G01 X-22.8926 Y31.1212 
G01 X-22.7776 Y31.0062 
G01 X-22.6873 Y30.8710 
G01 X-22.6250 Y30.7208 
G01 X-22.5933 Y30.5613 
G01 X-22.5933 Y30.3987 
G01 X-22.6250 Y30.2392 
G01 X-22.6873 Y30.0890 
G01 X-22.7776 Y29.9538 
G01 X-22.8926 Y29.8388 
G01 X-23.0278 Y29.7485 
G01 X-23.1780 Y29.6862 
G01 X-23.3375 Y29.6545 
G01 X-24.9225 Y29.6545 
G01 X-25.0820 Y29.6862 
G01 X-25.2322 Y29.7485 
G01 X-25.3674 Y29.8388 
G01 X-25.4824 Y29.9538 
G01 X-25.5727 Y30.0890 
G01 X-25.6350 Y30.2392 
G01 X-25.6667 Y30.3987 
G01 X-25.6667 Y30.5613 
G01 X-25.6350 Y30.7208 
G01 X-25.5727 Y30.8710 
G01 X-25.4824 Y31.0062 
G01 X-25.3674 Y31.1212 
G01 X-25.2322 Y31.2115 
G01 X-25.0820 Y31.2738 
G01 X-24.9225 Y31.3055 
G00 Z2.5400  
G00 X-24.9225 Y36.3855 
G01 Z-0.0500 F254   
G01 X-23.3375 Y36.3855 F508   
G01 X-23.1780 Y36.3538 
G01 X-23.0278 Y36.2915 
G01 X-22.8926 Y36.2012 
G01 X-22.7776 Y36.0862 
G01 X-22.6873 Y35.9510 
G01 X-22.6250 Y35.8008 
G01 X-22.5933 Y35.6413 
G01 X-22.5933 Y35.4787 
G01 X-22.6250 Y35.3192 
G01 X-22.6873 Y35.1690 
G01 X-22.7776 Y35.0338 
G01 X-22.8926 Y34.9188 
G01 X-23.0278 Y34.8285 
G01 X-23.1780 Y34.7662 
G01 X-23.3375 Y34.7345 
G01 X-24.9225 Y34.7345 
G01 X-25.0820 Y34.7662 
G01 X-25.2322 Y34.8285 
G01 X-25.3674 Y34.9188 
G01 X-25.4824 Y35.0338 
G01 X-25.5727 Y35.1690 
G01 X-25.6350 Y35.3192 
G01 X-25.6667 Y35.4787 
G01 X-25.6667 Y35.6413 
G01 X-25.6350 Y35.8008 
G01 X-25.5727 Y35.9510 
G01 X-25.4824 Y36.0862 
G01 X-25.3674 Y36.2012 
G01 X-25.2322 Y36.2915 
G01 X-25.0820 Y36.3538 
G01 X-24.9225 Y36.3855 
G00 Z2.5400  
G00 X-24.9225 Y38.9255 
G01 Z-0.0500 F254   
G01 X-23.3375 Y38.9255 F508   
G01 X-23.1780 Y38.8938 
G01 X-23.0278 Y38.8315 
G01 X-22.8926 Y38.7412 
G01 X-22.7776 Y38.6262 
G01 X-22.6873 Y38.4910 
G01 X-22.6250 Y38.3408 
G01 X-22.5933 Y38.1813 
G01 X-22.5933 Y38.0187 
G01 X-22.6250 Y37.8592 
G01 X-22.6873 Y37.7090 
G01 X-22.7776 Y37.5738 
G01 X-22.8926 Y37.4588 
G01 X-23.0278 Y37.3685 
G01 X-23.1780 Y37.3062 
G01 X-23.3375 Y37.2745 
G01 X-24.9225 Y37.2745 
G01 X-25.0820 Y37.3062 
G01 X-25.1188 Y37.3215 
G01 X-27.3580 Y35.0823 
G01 X-27.4623 Y34.9780 
G01 X-27.5851 Y34.8960 
G01 X-27.7214 Y34.8395 
G01 X-27.8662 Y34.8107 
G01 X-32.2707 Y34.8107 
G01 X-32.2707 Y29.6281 
G01 X-32.1945 Y29.5519 
G01 X-32.1945 Y28.8681 
G01 X-32.6781 Y28.3845 
G01 X-33.3619 Y28.3845 
G01 X-33.4381 Y28.4607 
G01 X-35.0870 Y28.4607 
G01 X-35.2020 Y28.3457 
G01 X-35.9180 Y28.3457 
G01 X-36.4243 Y28.8520 
G01 X-36.4243 Y29.5680 
G01 X-35.9180 Y30.0743 
G01 X-35.2020 Y30.0743 
G01 X-35.0870 Y29.9593 
G01 X-33.7693 Y29.9593 
G01 X-33.7693 Y35.6338 
G01 X-33.7405 Y35.7786 
G01 X-33.6840 Y35.9149 
G01 X-33.6020 Y36.0376 
G01 X-33.4977 Y36.1420 
G01 X-33.3749 Y36.2240 
G01 X-33.2386 Y36.2805 
G01 X-33.0938 Y36.3093 
G01 X-28.2504 Y36.3093 
G01 X-25.9820 Y38.5776 
G01 X-25.8777 Y38.6820 
G01 X-25.7549 Y38.7640 
G01 X-25.6186 Y38.8205 
G01 X-25.4738 Y38.8493 
G01 X-25.1894 Y38.8493 
G01 X-25.0820 Y38.8938 
G01 X-24.9225 Y38.9255 
G00 Z2.5400  
G00 X-24.9225 Y26.2255 
G01 Z-0.0500 F254   
G01 X-23.3375 Y26.2255 F508   
G01 X-23.1780 Y26.1938 
G01 X-23.0706 Y26.1493 
G01 X-21.9004 Y26.1493 
G01 X-15.7177 Y32.3320 
G01 X-15.5949 Y32.4140 
G01 X-15.4586 Y32.4705 
G01 X-15.3138 Y32.4993 
G01 X-10.9093 Y32.4993 
G01 X-10.9093 Y38.5953 
G01 X-12.2275 Y38.5953 
G01 X-12.3016 Y38.5212 
G01 X-12.4390 Y38.4213 
G01 X-12.5904 Y38.3442 
G01 X-12.7520 Y38.2917 
G01 X-12.9198 Y38.2651 
G01 X-15.0202 Y38.2651 
G01 X-15.1880 Y38.2917 
G01 X-15.3496 Y38.3442 
G01 X-15.5010 Y38.4213 
G01 X-15.6384 Y38.5212 
G01 X-15.7586 Y38.6414 
G01 X-15.8585 Y38.7788 
G01 X-15.9356 Y38.9302 
G01 X-15.9881 Y39.0918 
G01 X-16.0147 Y39.2596 
G01 X-16.0147 Y39.4296 
G01 X-15.9881 Y39.5974 
G01 X-15.9356 Y39.7590 
G01 X-15.8585 Y39.9104 
G01 X-15.7586 Y40.0478 
G01 X-15.6384 Y40.1680 
G01 X-15.5010 Y40.2679 
G01 X-15.3496 Y40.3450 
G01 X-15.1880 Y40.3975 
G01 X-15.0202 Y40.4241 
G01 X-12.9198 Y40.4241 
G01 X-12.7520 Y40.3975 
G01 X-12.5904 Y40.3450 
G01 X-12.4390 Y40.2679 
G01 X-12.3016 Y40.1680 
G01 X-12.2275 Y40.0939 
G01 X-10.3615 Y40.0939 
G01 X-10.2338 Y40.1193 
G01 X-10.0862 Y40.1193 
G01 X-9.9414 Y40.0905 
G01 X-9.8051 Y40.0340 
G01 X-9.6823 Y39.9520 
G01 X-9.5780 Y39.8477 
G01 X-9.4960 Y39.7249 
G01 X-9.4395 Y39.5886 
G01 X-9.4107 Y39.4438 
G01 X-9.4107 Y31.6762 
G01 X-9.4395 Y31.5314 
G01 X-9.4960 Y31.3951 
G01 X-9.5780 Y31.2723 
G01 X-9.6823 Y31.1680 
G01 X-9.8051 Y31.0860 
G01 X-9.9414 Y31.0295 
G01 X-10.0862 Y31.0007 
G01 X-14.9296 Y31.0007 
G01 X-21.0080 Y24.9224 
G01 X-21.1123 Y24.8180 
G01 X-21.2351 Y24.7360 
G01 X-21.3714 Y24.6795 
G01 X-21.5162 Y24.6507 
G01 X-23.0706 Y24.6507 
G01 X-23.1780 Y24.6062 
G01 X-23.3375 Y24.5745 
G01 X-24.9225 Y24.5745 
G01 X-25.0820 Y24.6062 
G01 X-25.2322 Y24.6684 
G01 X-25.3674 Y24.7588 
G01 X-25.4824 Y24.8738 
G01 X-25.5727 Y25.0090 
G01 X-25.6350 Y25.1592 
G01 X-25.6667 Y25.3187 
G01 X-25.6667 Y25.4813 
G01 X-25.6350 Y25.6408 
G01 X-25.5727 Y25.7910 
G01 X-25.4824 Y25.9262 
G01 X-25.3674 Y26.0412 
G01 X-25.2322 Y26.1315 
G01 X-25.0820 Y26.1938 
G01 X-24.9225 Y26.2255 
G00 Z2.5400  
G00 X-51.8502 Y50.5841 
G01 Z-0.0500 F254   
G01 X-51.5493 Y50.5841 F508   
G01 X-51.5493 Y53.5559 
G01 X-51.8502 Y53.5559 
G01 X-52.0180 Y53.5825 
G01 X-52.1796 Y53.6350 
G01 X-52.3310 Y53.7121 
G01 X-52.4684 Y53.8120 
G01 X-52.5886 Y53.9322 
G01 X-52.6885 Y54.0696 
G01 X-52.7656 Y54.2210 
G01 X-52.8181 Y54.3826 
G01 X-52.8447 Y54.5504 
G01 X-52.8447 Y54.7204 
G01 X-52.8181 Y54.8882 
G01 X-52.7656 Y55.0498 
G01 X-52.6885 Y55.2012 
G01 X-52.5886 Y55.3386 
G01 X-52.4684 Y55.4588 
G01 X-52.3310 Y55.5587 
G01 X-52.1796 Y55.6358 
G01 X-52.0180 Y55.6883 
G01 X-51.8502 Y55.7149 
G01 X-49.7498 Y55.7149 
G01 X-49.5820 Y55.6883 
G01 X-49.4204 Y55.6358 
G01 X-49.2690 Y55.5587 
G01 X-49.1316 Y55.4588 
G01 X-49.0321 Y55.3593 
G01 X-44.7604 Y55.3593 
G01 X-41.6941 Y58.4256 
G01 X-41.6941 Y59.4702 
G01 X-41.6675 Y59.6380 
G01 X-41.6150 Y59.7996 
G01 X-41.5379 Y59.9510 
G01 X-41.4380 Y60.0884 
G01 X-41.3639 Y60.1625 
G01 X-41.3639 Y61.0592 
G01 X-41.3351 Y61.2040 
G01 X-41.2786 Y61.3403 
G01 X-41.1966 Y61.4631 
G01 X-39.9520 Y62.7076 
G01 X-39.8477 Y62.8120 
G01 X-39.7249 Y62.8940 
G01 X-39.5886 Y62.9505 
G01 X-39.4438 Y62.9793 
G01 X-24.0562 Y62.9793 
G01 X-23.9114 Y62.9505 
G01 X-23.7751 Y62.8940 
G01 X-23.6523 Y62.8120 
G01 X-21.1123 Y60.2720 
G01 X-21.0080 Y60.1677 
G01 X-20.9260 Y60.0449 
G01 X-20.8695 Y59.9086 
G01 X-20.8407 Y59.7638 
